!!!COM: Haydn, Franz Joseph
!!!OPR: Symphony in C Major
!!!OTL: Affettuoso 
!!!OMV: 2
!!!SCT: H I:82
!!!SCA: Thematisch-bibliographisches Werkevererzeichnis (A. van Hoboken)
!!!YOR: Offenbach Edition, ca. 1864
!!!EED: Frances Bennion
!!!ENC: Frances Bennion
!!!CDT: 1732/3/31/-1809/5/31/
!!!OCY: Österreich
!!!YEC: Copyright (c) 1994, 2000 Center for Computer Assisted Research in the Humanities
!!!YEM: Rights to all derivative editions reserved.
!!!YEM: Refer to licensing agreement for further details.
!!!YEN: United States of America
**kern	**kern	**kern	**kern	**kern	**kern	**kern	**kern	**kern	**kern	**kern	**kern
*k[]	*k[b-]	*k[b-]	*k[b-]	*k[]	*k[b-]	*k[b-]	*k[b-]	*k[b-]	*k[b-]	*k[b-]	*k[b-]
*C:	*C:	*C:	*C:	*C:	*C:	*C:	*C:	*C:	*C:	*C:	*C:
*clefF	*clefC3	*clefF4	*clefF4	*clefF	*clefF	*clefF	*clefF	*clefF4	*clefF4	*clefF	*clefF
*M2/4	*M2/4	*M2/4	*M2/4	*M2/4	*M2/4	*M2/4	*M2/4	*M2/4	*M2/4	*M2/4	*M2/4
*tb16	*tb16	*tb16	*tb16	*tb16	*tb16	*tb16	*tb16	*tb16	*tb16	*tb16	*tb16
=0-	=0-	=0-	=0-	=0-	=0-	=0-	=0-	=0-	=0-	=0-	=0-
4.r	4.r	4.r	4.r	4.r	4.r	4.r	4.r	4.r	4.r	4.r	4.r
8r	8r	8r	8r	8r	8r	8r	8r	8r	8r	8a	8r
=1	=1	=1	=1	=1	=1	=1	=1	=1	=1	=1	=1
2r	2r	2r	2r	2r	2r	2r	2r	2r	2r	8b-	2r
.	.	.	.	.	.	.	.	.	.	16g	.
.	.	.	.	.	.	.	.	.	.	16r	.
.	.	.	.	.	.	.	.	.	.	8cc	.
.	.	.	.	.	.	.	.	.	.	16a	.
.	.	.	.	.	.	.	.	.	.	16r	.
=2	=2	=2	=2	=2	=2	=2	=2	=2	=2	=2	=2
2r	2r	2r	2r	2r	2r	2r	2r	2r	2r	4dd	2r
.	.	.	.	.	.	.	.	.	.	8b-	.
.	.	.	.	.	.	.	.	.	.	8g	.
=3	=3	=3	=3	=3	=3	=3	=3	=3	=3	=3	=3
2r	8G	8C	8C	2r	2r	2r	2r	2r	2r	8e	8B- 8e
.	8G	8C	8C	.	.	.	.	.	.	8e	8e 8B-
.	8A	8C	8C	.	.	.	.	.	.	8f	8A 8f
.	8A	8C	8C	.	.	.	.	.	.	8f	8f 8A
=4	=4	=4	=4	=4	=4	=4	=4	=4	=4	=4	=4
2r	4c	4C	4C	2r	2r	2r	2r	2r	2r	16g	4G 4e
.	.	.	.	.	.	.	.	.	.	16f	.
.	.	.	.	.	.	.	.	.	.	16g	.
.	.	.	.	.	.	.	.	.	.	16a	.
.	4r	4r	4r	.	.	.	.	.	.	8g	4r
.	.	.	.	.	.	.	.	.	.	8a	.
=5	=5	=5	=5	=5	=5	=5	=5	=5	=5	=5	=5
2r	2r	2r	2r	2r	2r	2r	2r	2r	2r	8b-	2r
.	.	.	.	.	.	.	.	.	.	16g	.
.	.	.	.	.	.	.	.	.	.	16r	.
.	.	.	.	.	.	.	.	.	.	8cc	.
.	.	.	.	.	.	.	.	.	.	16a	.
.	.	.	.	.	.	.	.	.	.	16r	.
=6	=6	=6	=6	=6	=6	=6	=6	=6	=6	=6	=6
2r	4.r	4.r	4.r	2r	2r	2r	2r	2r	2r	4dd	4.r
.	.	.	.	.	.	.	.	.	.	8b-	.
.	8B-	8BB-	8BB-	.	.	.	.	.	.	8g	8c 8e
=7	=7	=7	=7	=7	=7	=7	=7	=7	=7	=7	=7
2r	8A	8AA	8AA	2r	2r	2r	2r	2r	2r	8cc	8c 8f
.	8F	8AA	8AA	.	.	.	.	.	.	8a	8f 8c
.	8c	8C	8C	.	.	.	.	.	.	16g	8e 8B-
.	.	.	.	.	.	.	.	.	.	16f	.
.	8c	8C	8C	.	.	.	.	.	.	16g	8B- 8e
.	.	.	.	.	.	.	.	.	.	16a	.
=8	=8	=8	=8	=8	=8	=8	=8	=8	=8	=8	=8
4.r	4A	8FF	8FF	4.r	4.r	4.r	4.r	4.r	4.r	4f	4f 4A
.	.	8F	8F	.	.	.	.	.	.	.	.
.	8r	8FF	8FF	.	.	.	.	.	.	8r	8r
8r	8r	8r	8r	8r	8r	8r	8r	8r	8r	8ff	8r
=9	=9	=9	=9	=9	=9	=9	=9	=9	=9	=9	=9
2r	4F	4F	4F	2r	2r	2r	2r	2r	2r	8a	8f
.	.	.	.	.	.	.	.	.	.	8a	8f
.	4r	4r	4r	.	.	.	.	.	.	8b-	8g
.	.	.	.	.	.	.	.	.	.	8b-	8g
=10	=10	=10	=10	=10	=10	=10	=10	=10	=10	=10	=10
2r	4F	4F	4F	2r	2r	2r	2r	2r	2r	16cc	16a
.	.	.	.	.	.	.	.	.	.	16b-	16g
.	.	.	.	.	.	.	.	.	.	16cc	16a
.	.	.	.	.	.	.	.	.	.	16dd	16b-
.	4r	4r	4r	.	.	.	.	.	.	8cc	8a
.	.	.	.	.	.	.	.	.	.	8ff	8r
=11	=11	=11	=11	=11	=11	=11	=11	=11	=11	=11	=11
2r	4F	4F	4F	2r	2r	2r	2r	2r	2r	8a	8f
.	.	.	.	.	.	.	.	.	.	8a	8f
.	4r	4r	4r	.	.	.	.	.	.	8b-	8g
.	.	.	.	.	.	.	.	.	.	8b-	8g
=12	=12	=12	=12	=12	=12	=12	=12	=12	=12	=12	=12
2r	4F	4F	4F	2r	2r	2r	2r	2r	2r	16cc	16a
.	.	.	.	.	.	.	.	.	.	16b-	16g
.	.	.	.	.	.	.	.	.	.	16cc	16a
.	.	.	.	.	.	.	.	.	.	16dd	16b-
.	4r	4r	4r	.	.	.	.	.	.	8cc	8a
.	.	.	.	.	.	.	.	.	.	8aa	8a
=13	=13	=13	=13	=13	=13	=13	=13	=13	=13	=13	=13
2r	8r	8r	8r	2r	2r	2r	2r	2r	2r	4aa	4a
.	8f	8f	8f	.	.	.	.	.	.	.	.
.	8e	8e	8e	.	.	.	.	.	.	8gg	8g
.	8c#	8c#	8c#	.	.	.	.	.	.	8ee	8e
=14	=14	=14	=14	=14	=14	=14	=14	=14	=14	=14	=14
2r	8r	8r	8r	2r	2r	2r	2r	2r	2r	4gg	4g
.	8e	8e	8e	.	.	.	.	.	.	.	.
.	8d	8d	8d	.	.	.	.	.	.	8ff	8f
.	8c	8c	8c	.	.	.	.	.	.	8aa	8a
=15	=15	=15	=15	=15	=15	=15	=15	=15	=15	=15	=15
2r	8r	8r	8r	2r	2r	2r	2r	2r	2r	4aa	4a
.	8c	8c	8c	.	.	.	.	.	.	.	.
.	8B	8B	8B	.	.	.	.	.	.	8gg	8g
.	8G	8G	8G	.	.	.	.	.	.	8dd	8d
=16	=16	=16	=16	=16	=16	=16	=16	=16	=16	=16	=16
2r	8r	8r	8r	2r	2r	2r	2r	2r	2r	4ff	4f
.	8c	8c	8c	.	.	.	.	.	.	.	.
.	8C	8C	8C	.	.	.	.	.	.	8ee	8e
.	8c	8c	8c	.	.	.	.	.	.	8gg	8e
=17	=17	=17	=17	=17	=17	=17	=17	=17	=17	=17	=17
2r	8c	8c	8c	2r	2r	2r	2r	2r	2r	8aa	8f
.	8r	8r	8r	.	.	.	.	.	.	16ff	8r
.	.	.	.	.	.	.	.	.	.	16r	.
.	8d	8c	8c	.	.	.	.	.	.	8ddd	8G 8f
.	8r	8r	8r	.	.	.	.	.	.	16bb	8r
.	.	.	.	.	.	.	.	.	.	16r	.
=18	=18	=18	=18	=18	=18	=18	=18	=18	=18	=18	=18
2r	4e	4c	4c	2r	2r	2r	2r	2r	2r	16ccc	4G 4e
.	.	.	.	.	.	.	.	.	.	16bb	.
.	.	.	.	.	.	.	.	.	.	16ccc	.
.	.	.	.	.	.	.	.	.	.	16ddd	.
.	8r	8r	8r	.	.	.	.	.	.	8ccc	8r
.	8c	8c	8c	.	.	.	.	.	.	8gg	8e
=19	=19	=19	=19	=19	=19	=19	=19	=19	=19	=19	=19
2r	8c	8c	8c	2r	2r	2r	2r	2r	2r	8aa	8f
.	8r	8r	8r	.	.	.	.	.	.	16ff	8r
.	.	.	.	.	.	.	.	.	.	16r	.
.	8d	8c	8c	.	.	.	.	.	.	8ddd	8G 8f
.	8r	8r	8r	.	.	.	.	.	.	16bb	8r
.	.	.	.	.	.	.	.	.	.	16r	.
=20	=20	=20	=20	=20	=20	=20	=20	=20	=20	=20	=20
2r	4e	4c	4c	2r	2r	2r	2r	2r	2r	16ccc	4G 4e
.	.	.	.	.	.	.	.	.	.	16bb	.
.	.	.	.	.	.	.	.	.	.	16ccc	.
.	.	.	.	.	.	.	.	.	.	16ddd	.
.	8r	8r	8r	.	.	.	.	.	.	8ccc	8r
.	8g	8E	8E	.	.	.	.	.	.	8bb-	8cc
=21	=21	=21	=21	=21	=21	=21	=21	=21	=21	=21	=21
2r	4c	4F	4F	2r	2r	2r	2r	2r	2r	16aa	4cc
.	.	.	.	.	.	.	.	.	.	16gg	.
.	.	.	.	.	.	.	.	.	.	16aa	.
.	.	.	.	.	.	.	.	.	.	16bb-	.
.	8r	8r	8r	.	.	.	.	.	.	8aa	8r
.	8c#	8c#	8c#	.	.	.	.	.	.	8gg	8b-
=22	=22	=22	=22	=22	=22	=22	=22	=22	=22	=22	=22
2r	16d	16d	16d	2r	2r	2r	2r	2r	2r	16ff#	16a
.	16r	16r	16r	.	.	.	.	.	.	16r	16r
.	8B	8B	8B	.	.	.	.	.	.	8ff	8a-
.	16c	16c	16c	.	.	.	.	.	.	16ee	16g
.	16r	16r	16r	.	.	.	.	.	.	16r	16r
.	8F#	8F#	8F#	.	.	.	.	.	.	8aa	8e-
=23	=23	=23	=23	=23	=23	=23	=23	=23	=23	=23	=23
2r	4G	4G	4G	2r	2r	2r	2r	2r	2r	4cc	4e
.	8.B	4GG	4GG	.	.	.	.	.	.	16dd	4f
.	.	.	.	.	.	.	.	.	.	16cc	.
.	.	.	.	.	.	.	.	.	.	16dd	.
.	16d	.	.	.	.	.	.	.	.	16b	.
=24	=24	=24	=24	=24	=24	=24	=24	=24	=24	=24	=24
2r	4c	[2C	[2C	2r	2r	2r	2r	2r	2r	4cc	4e
.	4F#	.	.	.	.	.	.	.	.	8r	4f#
.	.	.	.	.	.	.	.	.	.	8a	.
=25	=25	=25	=25	=25	=25	=25	=25	=25	=25	=25	=25
2r	4G	2C_	2C_	2r	2r	2r	2r	2r	2r	8b-	4g 4G
.	.	.	.	.	.	.	.	.	.	16g	.
.	.	.	.	.	.	.	.	.	.	16r	.
.	4A	.	.	.	.	.	.	.	.	8cc	4A
.	.	.	.	.	.	.	.	.	.	16a	.
.	.	.	.	.	.	.	.	.	.	16r	.
=26	=26	=26	=26	=26	=26	=26	=26	=26	=26	=26	=26
2r	2B-	2C]	2C]	2r	2r	2r	2r	2r	2r	4dd	2B-
.	.	.	.	.	.	.	.	.	.	8b-	.
.	.	.	.	.	.	.	.	.	.	8g	.
=27	=27	=27	=27	=27	=27	=27	=27	=27	=27	=27	=27
2r	8G	8C	8C	2r	2r	2r	2r	2r	2r	8e	8B-
.	8G	8C	8C	.	.	.	.	.	.	8e	8B-
.	8F	8C	8C	.	.	.	.	.	.	8f	8f 8A
.	8F	8C	8C	.	.	.	.	.	.	8f	8A 8f
=28	=28	=28	=28	=28	=28	=28	=28	=28	=28	=28	=28
2r	4.E	[2C	[2C	2r	2r	2r	2r	2r	2r	16g	4.e 4.G
.	.	.	.	.	.	.	.	.	.	16f	.
.	.	.	.	.	.	.	.	.	.	16g	.
.	.	.	.	.	.	.	.	.	.	16a	.
.	.	.	.	.	.	.	.	.	.	8g	.
.	8F#	.	.	.	.	.	.	.	.	8a	8f#
=29	=29	=29	=29	=29	=29	=29	=29	=29	=29	=29	=29
2r	4G	2C]	2C]	2r	2r	2r	2r	2r	2r	8b-	4g 4G
.	.	.	.	.	.	.	.	.	.	16g	.
.	.	.	.	.	.	.	.	.	.	16r	.
.	4A	.	.	.	.	.	.	.	.	8cc	4A
.	.	.	.	.	.	.	.	.	.	16a	.
.	.	.	.	.	.	.	.	.	.	16r	.
=30	=30	=30	=30	=30	=30	=30	=30	=30	=30	=30	=30
2r	4.B-	4.C	4.C	2r	2r	2r	2r	2r	2r	4dd	4.B-
.	.	.	.	.	.	.	.	.	.	8b-	.
.	8B-	8BB-	8BB-	.	.	.	.	.	.	8g	8e 8c
=31	=31	=31	=31	=31	=31	=31	=31	=31	=31	=31	=31
2r	8A	8AA	8AA	2r	2r	2r	2r	2r	2r	8cc	8f 8c
.	8F	8AA	8AA	.	.	.	.	.	.	8a	8f 8c
.	8c	8C	8C	.	.	.	.	.	.	16g	8B- 8e
.	.	.	.	.	.	.	.	.	.	16f	.
.	8c	8C	8C	.	.	.	.	.	.	16g	8B- 8e
.	.	.	.	.	.	.	.	.	.	16a	.
=32	=32	=32	=32	=32	=32	=32	=32	=32	=32	=32	=32
4.r	8F	8FF	8FF	4.r	4.r	4.r	4.r	4.r	4.r	4f	4f 4A
.	8f	8F	8F	.	.	.	.	.	.	.	.
.	8F	8FF	8FF	.	.	.	.	.	.	8r	8r
8r	8r	8r	8r	8r	8r	8r	8r	8r	8r	8cc	8r
=33	=33	=33	=33	=33	=33	=33	=33	=33	=33	=33	=33
2r	8f	2r	2r	2r	2r	2r	2r	2r	2r	8aa-	8a-
.	8r	.	.	.	.	.	.	.	.	16ff	8r
.	.	.	.	.	.	.	.	.	.	16r	.
.	8g	.	.	.	.	.	.	.	.	8ee	8b-
.	8r	.	.	.	.	.	.	.	.	16gg	8r
.	.	.	.	.	.	.	.	.	.	16r	.
=34	=34	=34	=34	=34	=34	=34	=34	=34	=34	=34	=34
4.r	8a-	4.r	4.r	4.r	4.r	4.r	4.r	4.r	4.r	8ff	8cc
.	4r	.	.	.	.	.	.	.	.	8ff	4r
.	.	.	.	.	.	.	.	.	.	8r	.
8cc	8f	8F	8F	8cc	8ccc	8ccc	8aa-	8F	8F	8ccc	8aa-
=35	=35	=35	=35	=35	=35	=35	=35	=35	=35	=35	=35
8dd	8e	8E	8E	8dd	8ddd-	8ddd-	8bb-	8E	8E	8ddd-	8bb-
8cc	8f	8F	8F	8cc	8ccc	8ccc	8aa-	8F	8F	8ccc	8aa-
8dd	8d-	8B-	8B-	8dd	8bb-	8bb-	8gg	8B-	8B-	8bb-	8gg
8cc	8B	8B	8B	8cc	8aa-	8aa-	8ff	8B	8B	8aa-	8ff
=36	=36	=36	=36	=36	=36	=36	=36	=36	=36	=36	=36
8g	8c	8c	8c	8g	8gg	8gg	8ee	8c	8c	8gg 8cc	8cc 8ee
8g	8c	8c	8c	8g	8gg	8gg	8ee	8c	8c	8gg 8cc	8cc 8ee
4r	4r	4r	4r	4r	4r	4r	4r	4r	4r	8r	4r
.	.	.	.	.	.	.	.	.	.	8cc	.
=37	=37	=37	=37	=37	=37	=37	=37	=37	=37	=37	=37
2r	8cc	8f	2r	2r	2r	2r	2r	2r	2r	8aa-	8cc
.	8r	8r	.	.	.	.	.	.	.	16ff	8r
.	.	.	.	.	.	.	.	.	.	16r	.
.	8b-	8B-	.	.	.	.	.	.	.	8ddd-	8ff
.	8r	8r	.	.	.	.	.	.	.	16bb-	8r
.	.	.	.	.	.	.	.	.	.	16r	.
=38	=38	=38	=38	=38	=38	=38	=38	=38	=38	=38	=38
2r	8b-	8e-	4.r	2r	4.r	4.r	4.r	4.r	4.r	8gg	8dd-
.	4r	4r	.	.	.	.	.	.	.	8gg	4r
.	.	.	.	.	.	.	.	.	.	8r	.
.	8e-	8C	8C	.	8aa-	8aa-	8ee-	8c	8c	8aa-	8a- 8A-
=39	=39	=39	=39	=39	=39	=39	=39	=39	=39	=39	=39
2r	8f	8D-	8D-	2r	8ddd-	8ff	8ff	8d-	8d-	8ff	8a- 8A-
.	8f	8D-	8D-	.	8ddd-	8ff	8ff	8d-	8d-	8ff	8A- 8a-
.	8e-	8E-	8E-	.	8bb-	8gg	8dd-	8e-	8e-	8B- 8g	8d-
.	8e-	8E-	8E-	.	8bb-	8gg	8dd-	8e-	8e-	8B- 8g	8d-
=40	=40	=40	=40	=40	=40	=40	=40	=40	=40	=40	=40
4.r	8e-	8AA-	8AA-	4.r	8aa-	8aa-	8cc	8A-	8A-	8a- 8A-	8c
.	8e-	8AA-	8AA-	.	8aa-	8aa-	8cc	8A-	8A-	8A- 8a-	8c
.	8r	8r	8r	.	8r	8r	8r	8r	8r	8r	8r
8r	8r	8r	8r	8r	8r	8r	8r	8r	8r	8ee-	8r
=41	=41	=41	=41	=41	=41	=41	=41	=41	=41	=41	=41
2r	8a-	2r	2r	2r	2r	2r	2r	2r	2r	8ccc	8cc
.	8r	.	.	.	.	.	.	.	.	16aa-	8r
.	.	.	.	.	.	.	.	.	.	16r	.
.	8b-	.	.	.	.	.	.	.	.	8gg	8dd-
.	8r	.	.	.	.	.	.	.	.	16bb-	8r
.	.	.	.	.	.	.	.	.	.	16r	.
=42	=42	=42	=42	=42	=42	=42	=42	=42	=42	=42	=42
2r	8cc	4.r	4.r	2r	4.r	4.r	4.r	4.r	4.r	8aa-	8ee-
.	4r	.	.	.	.	.	.	.	.	8aa-	4r
.	.	.	.	.	.	.	.	.	.	8r	.
.	8a-	8A-	8A-	.	8ee-	8ee-	8ee-	8A-	8A-	8ee-	8ee-
=43	=43	=43	=43	=43	=43	=43	=43	=43	=43	=43	=43
2r	8e-	8G	8G	2r	8ddd-	8bb-	8ee-	8G	8G	8ddd- 8ee-	8bb-
.	8e-	8G	8G	.	8ddd-	8bb-	8ee-	8G	8G	8ddd- 8ee-	8bb-
.	8e-	8A-	8A-	.	8ccc	8aa-	8ee-	8A-	8A-	8ccc 8ee-	8aa-
.	8e-	8A-	8A-	.	8ccc	8aa-	8ee-	8A-	8A-	8ccc 8ee-	8aa-
=44	=44	=44	=44	=44	=44	=44	=44	=44	=44	=44	=44
2r	8e-	8E-	8E-	2r	8bb-	8gg	8ee-	8E-	8E-	8bb- 8ee-	8gg
.	8e-	8E-	8E-	.	8bb-	8gg	8ee-	8E-	8E-	8bb- 8ee-	8gg
.	4r	4r	4r	.	4r	4r	4r	4r	4r	8r	8r
.	.	.	.	.	.	.	.	.	.	8ee-	8ee-
=45	=45	=45	=45	=45	=45	=45	=45	=45	=45	=45	=45
2r	8r	8r	8r	2r	4r	4r	4r	4r	4r	8eee-	8ccc
.	8A	8F	8F	.	.	.	.	.	.	8eee-	8ccc
.	8a	8f	8f	.	4ccc	4aa	4ee-	4F	4F	8r	8r
.	8a	8f	8f	.	.	.	.	.	.	8aa	8ee-
=46	=46	=46	=46	=46	=46	=46	=46	=46	=46	=46	=46
2r	8r	8r	8r	2r	4r	4r	4r	4r	4r	8bb-	8dd-
.	8d-	8BB-	8BB-	.	.	.	.	.	.	8bb-	8dd-
.	8dd-	8B-	8B-	.	4ddd-	4bb-	4dd-	4BB-	4BB-	8r	8r
.	8dd-	8B-	8B-	.	.	.	.	.	.	8dd-	8b-
=47	=47	=47	=47	=47	=47	=47	=47	=47	=47	=47	=47
2r	8r	8r	8r	2r	4r	4r	4r	4r	4r	8ddd-	8bb-
.	8G	8E-	8E-	.	.	.	.	.	.	8ddd-	8bb-
.	8g	8e-	8e-	.	4bb-	4gg	4dd-	4E-	4E-	8r	8r
.	8g	8e-	8e-	.	.	.	.	.	.	8gg	8dd-
=48	=48	=48	=48	=48	=48	=48	=48	=48	=48	=48	=48
2r	8r	8r	8r	2r	4r	4r	4r	4r	4r	8aa-	8cc
.	8c	8AA-	8AA-	.	.	.	.	.	.	8aa-	8cc
.	8cc	8A-	8A-	.	4ccc	4aa-	4cc	4AA-	4AA-	8r	8r
.	8cc	8A-	8A-	.	.	.	.	.	.	8ccc	8aa-
=49	=49	=49	=49	=49	=49	=49	=49	=49	=49	=49	=49
2r	8r	2r	2r	2r	2r	2r	2r	8r	8r	8bb-	8gg
.	8c	.	.	.	.	.	.	8C	8C	8bb-	8gg
.	8cc	.	.	.	.	.	.	8c	8c	8r	8r
.	8cc	.	.	.	.	.	.	8c	8c	8aa-	8ff
=50	=50	=50	=50	=50	=50	=50	=50	=50	=50	=50	=50
2r	8r	2r	2r	2r	2r	2r	2r	8r	8r	8gg	8ee
.	8c	.	.	.	.	.	.	8C	8C	8gg	8ee
.	8cc	.	.	.	.	.	.	8c	8c	8r	8r
.	8cc	.	.	.	.	.	.	8c	8c	8ff	8a-
=51	=51	=51	=51	=51	=51	=51	=51	=51	=51	=51	=51
2r	2r	8r	8r	2r	2r	2r	2r	2r	2r	8ee	8g
.	.	8C	8C	.	.	.	.	.	.	8ee	8g
.	.	8c	8c	.	.	.	.	.	.	8r	8r
.	.	8c	8c	.	.	.	.	.	.	8b	8f
=52	=52	=52	=52	=52	=52	=52	=52	=52	=52	=52	=52
2r	2r	8r	8r	2r	2r	2r	2r	2r	2r	8cc	8e
.	.	8C	8C	.	.	.	.	.	.	8cc	8e
.	.	8c	8c	.	.	.	.	.	.	8r	4r
.	.	8c	8c	.	.	.	.	.	.	8cc	.
=53	=53	=53	=53	=53	=53	=53	=53	=53	=53	=53	=53
2r	8f	2r	2r	2r	2r	2r	2r	2r	2r	8aa-	8a-
.	8r	.	.	.	.	.	.	.	.	16ff	8r
.	.	.	.	.	.	.	.	.	.	16r	.
.	8g	.	.	.	.	.	.	.	.	8ee	8b-
.	8r	.	.	.	.	.	.	.	.	16gg	8r
.	.	.	.	.	.	.	.	.	.	16r	.
=54	=54	=54	=54	=54	=54	=54	=54	=54	=54	=54	=54
4.r	8a-	4.r	4.r	4.r	4.r	4.r	4.r	4.r	4.r	8ff	8cc
.	4r	.	.	.	.	.	.	.	.	8ff	4r
.	.	.	.	.	.	.	.	.	.	8r	.
8cc	8f	8F	8F	8cc	8ccc	8ccc	8aa-	8F	8F	8ccc	8aa-
=55	=55	=55	=55	=55	=55	=55	=55	=55	=55	=55	=55
8dd	8e	8E	8E	8dd	8ddd-	8ddd-	8bb-	8E	8E	8ddd-	8bb-
8cc	8f	8F	8F	8cc	8ccc	8ccc	8aa-	8F	8F	8ccc	8aa-
8dd	8d-	8B-	8B-	8dd	8bb-	8bb-	8gg	8B-	8B-	8bb-	8gg
8cc	8B	8B	8B	8cc	8aa-	8aa-	8ff	8B	8B	8aa-	8ff
=56	=56	=56	=56	=56	=56	=56	=56	=56	=56	=56	=56
8g	8c	8c	8c	8g	8gg	8gg	8ee	8c	8c	8gg 8cc	8ee
8g	8c	8c	8c	8g	8gg	8gg	8ee	8c	8c	8gg 8cc	8ee
4r	4r	4r	4r	4r	4r	4r	4r	4r	4r	8r	4r
.	.	.	.	.	.	.	.	.	.	8cc	.
=57	=57	=57	=57	=57	=57	=57	=57	=57	=57	=57	=57
2r	8f	2r	2r	2r	2r	2r	2r	2r	2r	8aa-	8cc
.	8r	.	.	.	.	.	.	.	.	16ff	8r
.	.	.	.	.	.	.	.	.	.	16r	.
.	8e-	.	.	.	.	.	.	.	.	8aa	8ff 8cc
.	8r	.	.	.	.	.	.	.	.	16ff	8r
.	.	.	.	.	.	.	.	.	.	16r	.
=58	=58	=58	=58	=58	=58	=58	=58	=58	=58	=58	=58
2r	8d-	4.r	4.r	2r	4.r	4.r	4.r	4.r	4.r	8bb-	8dd- 8ff
.	4r	.	.	.	.	.	.	.	.	8bb-	4r
.	.	.	.	.	.	.	.	.	.	8r	.
.	8f	8BB-	8BB-	.	8gg	8gg	8ff	8d-	8d-	8gg	8dd-
=59	=59	=59	=59	=59	=59	=59	=59	=59	=59	=59	=59
8cc	8f	8C	8C	8c	8aa-	8aa-	8ff	8c	8c	8aa-	8cc
8cc	8f	8C	8C	8c	8aa-	8aa-	8ff	8c	8c	8aa-	8cc
8g	8g	8CC	8CC	8g	8ee	8ee	8gg	8B-	8B-	8ee	8b-
8g	8g	8CC	8CC	8g	8ee	8ee	8gg	8B-	8B-	8ee	8b-
=60	=60	=60	=60	=60	=60	=60	=60	=60	=60	=60	=60
8cc	8f	8FF	8FF	8c	8ff	8ff	8ff	8A-	8A-	8ff	8a-
8cc	8f	8FF	8FF	8c	8ff	8ff	8ff	8A-	8A-	8ff	8a-
8r	8r	8r	8r	8r	8r	8r	8r	8r	8r	8r	8r
8r	8r	8r	8r	8r	8r	8r	8r	8r	8r	8a	8r
=61	=61	=61	=61	=61	=61	=61	=61	=61	=61	=61	=61
2r	2r	2r	2r	2r	2r	2r	2r	2r	2r	8b-	2r
.	.	.	.	.	.	.	.	.	.	16g	.
.	.	.	.	.	.	.	.	.	.	16r	.
.	.	.	.	.	.	.	.	.	.	8cc	.
.	.	.	.	.	.	.	.	.	.	16a	.
.	.	.	.	.	.	.	.	.	.	16r	.
=62	=62	=62	=62	=62	=62	=62	=62	=62	=62	=62	=62
2r	2r	2r	2r	2r	2r	2r	2r	2r	2r	4dd	2r
.	.	.	.	.	.	.	.	.	.	8b-	.
.	.	.	.	.	.	.	.	.	.	8g	.
=63	=63	=63	=63	=63	=63	=63	=63	=63	=63	=63	=63
2r	8G	8C	8C	2r	2r	2r	2r	2r	2r	8e	8e 8B-
.	8G	8C	8C	.	.	.	.	.	.	8e	8B- 8e
.	8A	8C	8C	.	.	.	.	.	.	8f	8f 8A
.	8A	8C	8C	.	.	.	.	.	.	8f	8f 8A
=64	=64	=64	=64	=64	=64	=64	=64	=64	=64	=64	=64
2r	4c	4C	4C	2r	2r	2r	2r	2r	2r	16g	4G 4e
.	.	.	.	.	.	.	.	.	.	16f	.
.	.	.	.	.	.	.	.	.	.	16g	.
.	.	.	.	.	.	.	.	.	.	16a	.
.	4r	4r	4r	.	.	.	.	.	.	8g	4r
.	.	.	.	.	.	.	.	.	.	8a	.
=65	=65	=65	=65	=65	=65	=65	=65	=65	=65	=65	=65
2r	2r	2r	2r	2r	2r	2r	2r	2r	2r	8b-	2r
.	.	.	.	.	.	.	.	.	.	16g	.
.	.	.	.	.	.	.	.	.	.	16r	.
.	.	.	.	.	.	.	.	.	.	8cc	.
.	.	.	.	.	.	.	.	.	.	16a	.
.	.	.	.	.	.	.	.	.	.	16r	.
=66	=66	=66	=66	=66	=66	=66	=66	=66	=66	=66	=66
2r	4.r	4.r	4.r	2r	2r	2r	2r	2r	2r	4dd	4.r
.	.	.	.	.	.	.	.	.	.	8b-	.
.	8B-	8BB-	8BB-	.	.	.	.	.	.	8g	8e 8c
=67	=67	=67	=67	=67	=67	=67	=67	=67	=67	=67	=67
2r	8A	8AA	8AA	2r	2r	2r	2r	2r	2r	8cc	8f 8c
.	8F	8AA	8AA	.	.	.	.	.	.	8a	8f 8c
.	8c	8C	8C	.	.	.	.	.	.	16g	8B- 8e
.	.	.	.	.	.	.	.	.	.	16f	.
.	8c	8C	8C	.	.	.	.	.	.	16g	8B- 8e
.	.	.	.	.	.	.	.	.	.	16a	.
=68	=68	=68	=68	=68	=68	=68	=68	=68	=68	=68	=68
2r	4A	8FF	8FF	2r	4.r	2r	2r	4.r	4.r	4f	4f 4A
.	.	8F	8F	.	.	.	.	.	.	.	.
.	4r	8FF	8FF	.	.	.	.	.	.	8r	4r
.	.	8r	8r	.	8aa	.	.	8A	8F#	8a	.
=69	=69	=69	=69	=69	=69	=69	=69	=69	=69	=69	=69
2r	2r	2r	2r	2r	8bb-	2r	2r	8B-	8G	8b-	2r
.	.	.	.	.	16gg	.	.	8r	8r	16g	.
.	.	.	.	.	16r	.	.	.	.	16r	.
.	.	.	.	.	8ccc	.	.	8c	8A	8cc	.
.	.	.	.	.	16aa	.	.	8r	8r	16a	.
.	.	.	.	.	16r	.	.	.	.	16r	.
=70	=70	=70	=70	=70	=70	=70	=70	=70	=70	=70	=70
2r	2r	2r	2r	2r	4ddd	2r	2r	4d	4B-	4dd	2r
.	.	.	.	.	8bb-	.	.	4r	4r	8b-	.
.	.	.	.	.	8gg	.	.	.	.	8g	.
=71	=71	=71	=71	=71	=71	=71	=71	=71	=71	=71	=71
2r	8G	8C	8C	2r	8ee	2r	2r	2r	2r	8e	8e 8B-
.	8G	8C	8C	.	8ee	.	.	.	.	8e	8B- 8e
.	8A	8C	8C	.	8ff	.	.	.	.	8f	8f 8A
.	8A	8C	8C	.	8ff	.	.	.	.	8f	8f 8A
=72	=72	=72	=72	=72	=72	=72	=72	=72	=72	=72	=72
2r	4c	4C	4C	2r	16gg	2r	2r	4.r	4.r	16g	4G 4e
.	.	.	.	.	16ff	.	.	.	.	16f	.
.	.	.	.	.	16gg	.	.	.	.	16g	.
.	.	.	.	.	16aa	.	.	.	.	16a	.
.	4r	4r	4r	.	8gg	.	.	.	.	8g	4r
.	.	.	.	.	8aa	.	.	8A	8F#	8a	.
=73	=73	=73	=73	=73	=73	=73	=73	=73	=73	=73	=73
2r	2r	2r	2r	2r	8bb-	2r	2r	8B-	8G	8b-	2r
.	.	.	.	.	16gg	.	.	8r	8r	16g	.
.	.	.	.	.	16r	.	.	.	.	16r	.
.	.	.	.	.	8ccc	.	.	8c	8A	8cc	.
.	.	.	.	.	16aa	.	.	8r	8r	16a	.
.	.	.	.	.	16r	.	.	.	.	16r	.
=74	=74	=74	=74	=74	=74	=74	=74	=74	=74	=74	=74
2r	4.r	4.r	4.r	2r	4ddd	2r	2r	4d	4B-	4dd	4.r
.	.	.	.	.	8bb-	.	.	4r	4r	8b-	.
.	8B-	8BB-	8BB-	.	8gg	.	.	.	.	8g	8c 8e
=75	=75	=75	=75	=75	=75	=75	=75	=75	=75	=75	=75
2r	8A	8AA	8AA	2r	8ccc	2r	2r	2r	2r	8cc	8f 8c
.	8F	8AA	8AA	.	8aa	.	.	.	.	8a	8f 8c
.	8c	8C	8C	.	16gg	.	.	.	.	16g	8B- 8e
.	.	.	.	.	16ff	.	.	.	.	16f	.
.	8c	8C	8C	.	16gg	.	.	.	.	16g	8B- 8e
.	.	.	.	.	16aa	.	.	.	.	16a	.
=76	=76	=76	=76	=76	=76	=76	=76	=76	=76	=76	=76
2r	4A	8FF	8FF	2r	4ff	2r	2r	2r	2r	4f	4f 4A
.	.	8F	8F	.	.	.	.	.	.	.	.
.	4r	8FF	8FF	.	4r	.	.	.	.	8r	4r
.	.	8r	8r	.	.	.	.	.	.	8ff	.
=77	=77	=77	=77	=77	=77	=77	=77	=77	=77	=77	=77
2r	4F	4F	4F	2r	2r	2r	2r	2r	2r	8a	8f
.	.	.	.	.	.	.	.	.	.	8a	8f
.	4r	4r	4r	.	.	.	.	.	.	8b-	8g
.	.	.	.	.	.	.	.	.	.	8b-	8g
=78	=78	=78	=78	=78	=78	=78	=78	=78	=78	=78	=78
2r	4F	4F	4F	2r	2r	2r	2r	4.r	4.r	16cc	16a
.	.	.	.	.	.	.	.	.	.	16b-	16g
.	.	.	.	.	.	.	.	.	.	16cc	16a
.	.	.	.	.	.	.	.	.	.	16dd	16b-
.	4r	4r	4r	.	.	.	.	.	.	8cc	8a
.	.	.	.	.	.	.	.	8f	8F	8ff	8r
=79	=79	=79	=79	=79	=79	=79	=79	=79	=79	=79	=79
2r	4F	4F	4F	2r	2r	2r	2r	8A	8F	8a	8f
.	.	.	.	.	.	.	.	8A	8F	8a	8f
.	4r	4r	4r	.	.	.	.	8B-	8G	8b-	8g
.	.	.	.	.	.	.	.	8B-	8G	8b-	8g
=80	=80	=80	=80	=80	=80	=80	=80	=80	=80	=80	=80
2r	4F	4F	4F	2r	4.r	2r	2r	16c	16A	16cc	16a
.	.	.	.	.	.	.	.	16B-	16G	16b-	16g
.	.	.	.	.	.	.	.	16c	16A	16cc	16a
.	.	.	.	.	.	.	.	16d	16B-	16dd	16b-
.	4r	4r	4r	.	.	.	.	8c	8A	8cc	8a
.	.	.	.	.	8aa	.	.	8r	8r	8aa	8a
=81	=81	=81	=81	=81	=81	=81	=81	=81	=81	=81	=81
2r	8r	8r	8r	2r	4aa	2r	2r	2r	2r	4aa	4a
.	8f	8f	8f	.	.	.	.	.	.	.	.
.	8e	8e	8e	.	8gg	.	.	.	.	8gg	8g
.	8c#	8c#	8c#	.	8ee	.	.	.	.	8ee	8e
=82	=82	=82	=82	=82	=82	=82	=82	=82	=82	=82	=82
2r	8r	8r	8r	2r	4gg	2r	2r	2r	2r	4gg	4g
.	8e	8e	8e	.	.	.	.	.	.	.	.
.	8d	8d	8d	.	8ff	.	.	.	.	8ff	8f
.	8c	8c	8c	.	8aa	.	.	.	.	8aa	8a
=83	=83	=83	=83	=83	=83	=83	=83	=83	=83	=83	=83
2r	8r	8r	8r	2r	4aa	2r	2r	2r	2r	4aa	4a
.	8c	8c	8c	.	.	.	.	.	.	.	.
.	8B	8B	8B	.	8gg	.	.	.	.	8gg	8g
.	8G	8G	8G	.	8dd	.	.	.	.	8dd	8d
=84	=84	=84	=84	=84	=84	=84	=84	=84	=84	=84	=84
2r	8r	8r	8r	2r	4ff	2r	2r	2r	2r	4ff	4f
.	8c	8c	8c	.	.	.	.	.	.	.	.
.	8C	8C	8C	.	8ee	.	.	.	.	8ee	8e
.	8c	8c	8c	.	8gg	.	.	.	.	8gg	8e
=85	=85	=85	=85	=85	=85	=85	=85	=85	=85	=85	=85
2r	8c	8c	8c	2r	8aa	2r	2r	2r	2r	8aa	8f
.	8r	8r	8r	.	16ff	.	.	.	.	16ff	8r
.	.	.	.	.	16r	.	.	.	.	16r	.
.	8d	8c	8c	.	8ddd	.	.	.	.	8ddd	8f 8G
.	8r	8r	8r	.	16bb	.	.	.	.	16bb	8r
.	.	.	.	.	16r	.	.	.	.	16r	.
=86	=86	=86	=86	=86	=86	=86	=86	=86	=86	=86	=86
2r	4e	4c	4c	2r	16ccc	2r	2r	2r	2r	16ccc	4e 4G
.	.	.	.	.	16bb	.	.	.	.	16bb	.
.	.	.	.	.	16ccc	.	.	.	.	16ccc	.
.	.	.	.	.	16ddd	.	.	.	.	16ddd	.
.	8r	8r	8r	.	8ccc	.	.	.	.	8ccc	8r
.	8c	8c	8c	.	8gg	.	.	.	.	8gg	8e
=87	=87	=87	=87	=87	=87	=87	=87	=87	=87	=87	=87
2r	8c	8c	8c	2r	8aa	2r	2r	2r	2r	8aa	8f
.	8r	8r	8r	.	16ff	.	.	.	.	16ff	8r
.	.	.	.	.	16r	.	.	.	.	16r	.
.	8d	8c	8c	.	8ddd	.	.	.	.	8ddd	8f 8G
.	8r	8r	8r	.	16bb	.	.	.	.	16bb	8r
.	.	.	.	.	16r	.	.	.	.	16r	.
=88	=88	=88	=88	=88	=88	=88	=88	=88	=88	=88	=88
2r	4e	4c	4c	2r	16ccc	2r	2r	2r	2r	16ccc	4e 4G
.	.	.	.	.	16bb	.	.	.	.	16bb	.
.	.	.	.	.	16ccc	.	.	.	.	16ccc	.
.	.	.	.	.	16ddd	.	.	.	.	16ddd	.
.	8r	8r	8r	.	8ccc	.	.	.	.	8ccc	8r
.	8g	8E	8E	.	8bb-	.	.	.	.	8bb-	8cc
=89	=89	=89	=89	=89	=89	=89	=89	=89	=89	=89	=89
2r	4c	4F	4F	2r	16aa	2r	2r	2r	2r	16aa	4cc
.	.	.	.	.	16gg	.	.	.	.	16gg	.
.	.	.	.	.	16aa	.	.	.	.	16aa	.
.	.	.	.	.	16bb-	.	.	.	.	16bb-	.
.	8r	8r	8r	.	8aa	.	.	.	.	8aa	8r
.	8c#	8c#	8c#	.	8gg	.	.	.	.	8gg	8b-
=90	=90	=90	=90	=90	=90	=90	=90	=90	=90	=90	=90
2r	16d	16d	16d	2r	16ff#	2r	2r	2r	2r	16ff#	16a
.	16r	16r	16r	.	16r	.	.	.	.	16r	16r
.	8B	8B	8B	.	8ff	.	.	.	.	8ff	8a-
.	16c	16c	16c	.	16ee	.	.	.	.	16ee	16g
.	16r	16r	16r	.	16r	.	.	.	.	16r	16r
.	8F#	8F#	8F#	.	8aa	.	.	.	.	8aa	8e-
=91	=91	=91	=91	=91	=91	=91	=91	=91	=91	=91	=91
2r	4G	4G	4G	2r	4cc	2r	2r	2r	2r	4cc	4e
.	8.B	4GG	4GG	.	16dd	.	.	.	.	16dd	4f
.	.	.	.	.	16cc	.	.	.	.	16cc	.
.	.	.	.	.	16dd	.	.	.	.	16dd	.
.	16d	.	.	.	16b	.	.	.	.	16b	.
=92	=92	=92	=92	=92	=92	=92	=92	=92	=92	=92	=92
2r	4c	[2C	[2C	2r	4cc	4.r	4.r	4.r	4.r	4cc	4e
.	4F#	.	.	.	8r	.	.	.	.	8r	4f#
.	.	.	.	.	8aa	8aa	8ff#	8A	8F#	8a	.
=93	=93	=93	=93	=93	=93	=93	=93	=93	=93	=93	=93
2r	4G	2C_	2C_	2r	8bb-	8r	8r	8B-	8G	8b-	4g 4G
.	.	.	.	.	16gg	8bb-	8gg	8r	8r	16g	.
.	.	.	.	.	16r	.	.	.	.	16r	.
.	4A	.	.	.	8ccc	8r	8r	8c	8A	8cc	4A
.	.	.	.	.	16aa	8ccc	8aa	8r	8r	16a	.
.	.	.	.	.	16r	.	.	.	.	16r	.
=94	=94	=94	=94	=94	=94	=94	=94	=94	=94	=94	=94
2r	2B-	2C]	2C]	2r	4ddd	8r	8r	4d	4B-	4dd	2B-
.	.	.	.	.	.	8ddd	8bb-	.	.	.	.
.	.	.	.	.	8bb-	8bb-	8gg	4r	4r	8b-	.
.	.	.	.	.	8gg	8gg	8ee	.	.	8g	.
=95	=95	=95	=95	=95	=95	=95	=95	=95	=95	=95	=95
2r	8G	8C	8C	2r	8ee	8r	8r	8B-	8G	8e	8B- 8e
.	8G	8C	8C	.	8ee	8ee	8b-	8B-	8G	8e	8e 8B-
.	8F	8C	8C	.	8ff	8r	8r	8A	8F	8f	8f 8A
.	8F	8C	8C	.	8ff	8ff	8a	8A	8F	8f	8f 8A
=96	=96	=96	=96	=96	=96	=96	=96	=96	=96	=96	=96
2r	4.E	[2C	[2C	2r	16gg	8r	8r	4G	4C	16g	4.e 4.G
.	.	.	.	.	16ff	.	.	.	.	16f	.
.	.	.	.	.	16gg	16gg	16ee	.	.	16g	.
.	.	.	.	.	16aa	16aa	16ff	.	.	16a	.
.	.	.	.	.	8gg	8gg	8ee	8r	8r	8g	.
.	8F#	.	.	.	8aa	8aa	8ff#	8A	8F#	8a	8f#
=97	=97	=97	=97	=97	=97	=97	=97	=97	=97	=97	=97
2r	4G	2C_	2C_	2r	8bb-	8r	8r	8B-	8G	8b-	4g 4G
.	.	.	.	.	16gg	8bb-	8gg	8r	8r	16g	.
.	.	.	.	.	16r	.	.	.	.	16r	.
.	4A	.	.	.	8ccc	8r	8r	8c	8A	8cc	4A
.	.	.	.	.	16aa	8ccc	8aa	8r	8r	16a	.
.	.	.	.	.	16r	.	.	.	.	16r	.
=98	=98	=98	=98	=98	=98	=98	=98	=98	=98	=98	=98
2r	4.B-	4.C]	4.C]	2r	4ddd	8r	8r	4d	4B-	4dd	4.B-
.	.	.	.	.	.	8ddd	8bb-	.	.	.	.
.	.	.	.	.	8bb-	8bb-	8gg	4r	4r	8b-	.
.	8B-	8BB-	8BB-	.	8gg	8gg	8ee	.	.	8g	8e 8c
=99	=99	=99	=99	=99	=99	=99	=99	=99	=99	=99	=99
2r	8A	8AA	8AA	2r	8ccc	8r	8r	8r	8r	8cc	8f 8c
.	8F	8AA	8AA	.	8aa	8aa	8cc	8A	8F	8a	8f 8c
.	8c	8C	8C	.	16gg	16gg	16b-	16G	8C	16g	8B- 8e
.	.	.	.	.	16ff	16ff	16a	16F	.	16f	.
.	8c	8C	8C	.	16gg	16gg	16b-	16G	8C	16g	8B- 8e
.	.	.	.	.	16aa	16aa	16cc	16A	.	16a	.
=100	=100	=100	=100	=100	=100	=100	=100	=100	=100	=100	=100
4.r	8F	8FF	8FF	4.r	4ff	4ff	4a	4F	4AA	4f	4A 4f
.	8f	8F	8F	.	.	.	.	.	.	.	.
.	8F	8FF	8FF	.	8r	8r	8r	8r	8r	8r	8r
8r	8r	8r	8r	8r	8cc	8cc	8cc	8r	8r	8cc	8cc
=101	=101	=101	=101	=101	=101	=101	=101	=101	=101	=101	=101
4cc	16f	16F	16F	4c	4ccc	4aa-	4cc	4A-	4F	8aa- 8f 8cc	4aa- 4f 4cc
.	16e	16E	16E	.	.	.	.	.	.	.	.
.	16f	16F	16F	.	.	.	.	.	.	8r	.
.	16a-	16A-	16A-	.	.	.	.	.	.	.	.
4dd	16cc	16c	16c	4g	4ee	4ee	4b-	4G	4C	8ee 8g 8b-	4ee 4g 4b-
.	16dd-	16d-	16d-	.	.	.	.	.	.	.	.
.	16cc	16c	16c	.	.	.	.	.	.	8r	.
.	16b-	16B-	16B-	.	.	.	.	.	.	.	.
=102	=102	=102	=102	=102	=102	=102	=102	=102	=102	=102	=102
4cc	16a-	16A-	16A-	4c	4ff	4ff	4a-	4F	4AA-	8f 8ff 8cc	8ff 8f 8cc
.	16b-	16B-	16B-	.	.	.	.	.	.	.	.
.	16a-	16A-	16A-	.	.	.	.	.	.	4r	4r
.	16g	16G	16G	.	.	.	.	.	.	.	.
8r	16f	16F	16F	8r	8r	8r	8r	8r	8r	.	.
.	16a-	16A-	16A-	.	.	.	.	.	.	.	.
8cc	16g	16G	16G	8c	8ff	8cc	8cc	8A-	8F	8cc	8cc
.	16f	16F	16F	.	.	.	.	.	.	.	.
=103	=103	=103	=103	=103	=103	=103	=103	=103	=103	=103	=103
4g	16e	16E	16E	4G	4bb-	4bb-	4gg	4B-	4G	8bb- 8cc 8e	8bb- 8e 8cc
.	16c	16C	16C	.	.	.	.	.	.	.	.
.	16d	16D	16D	.	.	.	.	.	.	8r	8r
.	16e	16E	16E	.	.	.	.	.	.	.	.
4g	16f	16F	16F	4G	4aa-	4aa-	4ff	4A-	4F	8aa- 8cc 8f	8aa- 8cc 8f
.	16g	16G	16G	.	.	.	.	.	.	.	.
.	16a-	16A-	16A-	.	.	.	.	.	.	8r	8r
.	16b-	16B-	16B-	.	.	.	.	.	.	.	.
=104	=104	=104	=104	=104	=104	=104	=104	=104	=104	=104	=104
4g	16cc	16c	16c	4G	4gg	4gg	4ee	4G	4C	4gg 4cc 4e	8gg 8cc 8e
.	16dd-	16d-	16d-	.	.	.	.	.	.	.	.
.	16cc	16c	16c	.	.	.	.	.	.	.	4r
.	16b	16B	16B	.	.	.	.	.	.	.	.
8r	16cc	16c	16c	8r	8r	8r	8r	8r	8r	8r	.
.	16b-	16B-	16B-	.	.	.	.	.	.	.	.
8g	16a-	16A-	16A-	8g	8cc	8cc	8cc	8G	8C	8cc	8cc
.	16g	16G	16G	.	.	.	.	.	.	.	.
=105	=105	=105	=105	=105	=105	=105	=105	=105	=105	=105	=105
4cc	16f	16F	16F	4cc	4aa-	4aa-	4cc	4A-	4F	8f 8aa- 8cc	8f 8aa- 8cc
.	16g	16G	16G	.	.	.	.	.	.	.	.
.	16f	16F	16F	.	.	.	.	.	.	8r	8r
.	16e-	16E-	16E-	.	.	.	.	.	.	.	.
4cc	16d-	16D-	16D-	4cc	4bb-	4bb-	4ff	4d-	4B-	8f 8bb- 8dd-	8bb- 8dd- 8f
.	16c	16C	16C	.	.	.	.	.	.	.	.
.	16d-	16D-	16D-	.	.	.	.	.	.	8r	8r
.	16B-	16BB-	16BB-	.	.	.	.	.	.	.	.
=106	=106	=106	=106	=106	=106	=106	=106	=106	=106	=106	=106
4dd	16e-	16E-	16E-	4dd	4ddd-	4gg	4b-	4B-	4G	8dd- 8gg 8e-	8e- 8dd- 8gg
.	16f	16F	16F	.	.	.	.	.	.	.	.
.	16e-	16E-	16E-	.	.	.	.	.	.	8r	8r
.	16d-	16D-	16D-	.	.	.	.	.	.	.	.
4r	16c	16C	16C	4r	4ccc	4aa-	4ee-	4c	4A-	8aa- 8e- 8cc	8aa- 8cc 8e-
.	16B-	16BB-	16BB-	.	.	.	.	.	.	.	.
.	16c	16C	16C	.	.	.	.	.	.	8r	8r
.	16A-	16AA-	16AA-	.	.	.	.	.	.	.	.
=107	=107	=107	=107	=107	=107	=107	=107	=107	=107	=107	=107
4cc	16d-	16D-	16D-	4cc	4bb-	4ff	4ff	4d-	4B-	8dd- 8ff	8a- 8A-
.	16c	16C	16C	.	.	.	.	.	.	.	.
.	16d-	16D-	16D-	.	.	.	.	.	.	8r	8r
.	16B-	16BB-	16BB-	.	.	.	.	.	.	.	.
4dd	8e-	8E-	8E-	4dd	4ee-	4g	4dd-	4B-	4E-	8g 8B-	8e- 8d-
.	8e-	8E-	8E-	.	.	.	.	.	.	8r	8r
=108	=108	=108	=108	=108	=108	=108	=108	=108	=108	=108	=108
4g	8A-	8AA-	8AA-	4g	4cc	4a-	4cc	4A-	4C	4A- 4a-	8e- 8c
.	8a-	8A-	8A-	.	.	.	.	.	.	.	4r
8r	8A-	8AA-	8AA-	8r	8r	8r	8r	8r	8r	8r	.
8r	8r	8r	8r	8r	8ee-	8r	8r	8r	8r	8ee-	8r
=109	=109	=109	=109	=109	=109	=109	=109	=109	=109	=109	=109
2r	2r	2r	2r	2r	8ccc	2r	2r	8A-	8A-	8ccc	16a-
.	.	.	.	.	.	.	.	.	.	.	16g
.	.	.	.	.	8r	.	.	8r	8r	8r	16a-
.	.	.	.	.	.	.	.	.	.	.	16cc
.	.	.	.	.	8gg	.	.	8e-	8e-	8gg	16ee-
.	.	.	.	.	.	.	.	.	.	.	16ff
.	.	.	.	.	8r	.	.	8r	8r	8r	16ee-
.	.	.	.	.	.	.	.	.	.	.	16dd-
=110	=110	=110	=110	=110	=110	=110	=110	=110	=110	=110	=110
2r	2r	2r	2r	2r	8aa-	2r	2r	4c	8c	4aa-	16cc
.	.	.	.	.	.	.	.	.	.	.	16dd-
.	.	.	.	.	4r	.	.	.	4r	.	16cc
.	.	.	.	.	.	.	.	.	.	.	16b-
.	.	.	.	.	.	.	.	8r	.	8r	16a-
.	.	.	.	.	.	.	.	.	.	.	16cc
.	.	.	.	.	8ee-	.	.	8A-	8A-	8ee-	16b-
.	.	.	.	.	.	.	.	.	.	.	16a-
=111	=111	=111	=111	=111	=111	=111	=111	=111	=111	=111	=111
2r	2r	2r	2r	2r	8ddd-	8bb-	8ee-	8G	8G	8ddd-	16g
.	.	.	.	.	.	.	.	.	.	.	16f
.	.	.	.	.	8r	8r	8r	8r	8r	8r	16g
.	.	.	.	.	.	.	.	.	.	.	16e-
.	.	.	.	.	8ccc	8aa-	8ee-	8A-	8A-	8ccc	16a-
.	.	.	.	.	.	.	.	.	.	.	16b-
.	.	.	.	.	8r	8r	8r	8r	8r	8r	16cc
.	.	.	.	.	.	.	.	.	.	.	16dd-
=112	=112	=112	=112	=112	=112	=112	=112	=112	=112	=112	=112
2r	2r	2r	2r	2r	4bb-	4gg	4ee-	4E-	4E-	4bb-	16ee-
.	.	.	.	.	.	.	.	.	.	.	16dd
.	.	.	.	.	.	.	.	.	.	.	16ee-
.	.	.	.	.	.	.	.	.	.	.	16ff
.	.	.	.	.	8r	4r	4r	4r	4r	8r	16ee-
.	.	.	.	.	.	.	.	.	.	.	16dd-
.	.	.	.	.	8ee-	.	.	.	.	8ee-	16cc
.	.	.	.	.	.	.	.	.	.	.	16b-
=113	=113	=113	=113	=113	=113	=113	=113	=113	=113	=113	=113
2r	2r	2r	2r	2r	8eee-	4r	4r	4F	4F	8eee-	16cc
.	.	.	.	.	.	.	.	.	.	.	16b-
.	.	.	.	.	8r	.	.	.	.	8r	16a
.	.	.	.	.	.	.	.	.	.	.	16g-
.	.	.	.	.	8aa	8ee-	8cc	4r	4r	8aa	16f
.	.	.	.	.	.	.	.	.	.	.	16g-
.	.	.	.	.	8r	8r	8r	.	.	8r	16f
.	.	.	.	.	.	.	.	.	.	.	16e-
=114	=114	=114	=114	=114	=114	=114	=114	=114	=114	=114	=114
2r	2r	2r	2r	2r	8bb-	8ff	8dd-	4BB-	4BB-	8bb-	16d-
.	.	.	.	.	.	.	.	.	.	.	16e-
.	.	.	.	.	4r	4.r	4.r	.	.	4r	16d-
.	.	.	.	.	.	.	.	.	.	.	16c
.	.	.	.	.	.	.	.	4r	4r	.	16B-
.	.	.	.	.	.	.	.	.	.	.	16d-
.	.	.	.	.	8ccc	.	.	.	.	8ccc	16f
.	.	.	.	.	.	.	.	.	.	.	16a
=115	=115	=115	=115	=115	=115	=115	=115	=115	=115	=115	=115
2r	2r	2r	2r	2r	8ddd-	4r	4r	4E-	4E-	8ddd-	16b-
.	.	.	.	.	.	.	.	.	.	.	16a-
.	.	.	.	.	8r	.	.	.	.	8r	16g
.	.	.	.	.	.	.	.	.	.	.	16f
.	.	.	.	.	8gg	8dd-	8b-	4r	4r	8gg	16e-
.	.	.	.	.	.	.	.	.	.	.	16f
.	.	.	.	.	8r	8r	8r	.	.	8r	16e-
.	.	.	.	.	.	.	.	.	.	.	16d-
=116	=116	=116	=116	=116	=116	=116	=116	=116	=116	=116	=116
2r	2r	2r	2r	2r	8aa-	8ee-	8cc	4AA-	4AA-	8aa-	16c
.	.	.	.	.	.	.	.	.	.	.	16d-
.	.	.	.	.	4r	4.r	4.r	.	.	4r	16c
.	.	.	.	.	.	.	.	.	.	.	16B-
.	.	.	.	.	.	.	.	4r	4r	.	16A-
.	.	.	.	.	.	.	.	.	.	.	16c
.	.	.	.	.	8ccc	.	.	.	.	8ccc	16e-
.	.	.	.	.	.	.	.	.	.	.	16a-
=117	=117	=117	=117	=117	=117	=117	=117	=117	=117	=117	=117
[2g	2r	2r	2r	[2G	8bb-	8ee	8cc	4C	4C	8bb-	16g
.	.	.	.	.	.	.	.	.	.	.	16f
.	.	.	.	.	8r	8r	8r	.	.	8r	16g
.	.	.	.	.	.	.	.	.	.	.	16c
.	.	.	.	.	8aa-	8ff	8cc	4r	4r	8aa-	16f
.	.	.	.	.	.	.	.	.	.	.	16e
.	.	.	.	.	8r	8r	8r	.	.	8r	16f
.	.	.	.	.	.	.	.	.	.	.	16c
=118	=118	=118	=118	=118	=118	=118	=118	=118	=118	=118	=118
2g_	2r	2r	2r	2G_	8gg	4ee	4cc	4C	4C	4gg	16e
.	.	.	.	.	.	.	.	.	.	.	16d
.	.	.	.	.	4r	.	.	.	.	.	16e
.	.	.	.	.	.	.	.	.	.	.	16c
.	.	.	.	.	.	4r	4r	4r	4r	8r	16a-
.	.	.	.	.	.	.	.	.	.	.	16g
.	.	.	.	.	8ff	.	.	.	.	8ff	16a-
.	.	.	.	.	.	.	.	.	.	.	16c
=119	=119	=119	=119	=119	=119	=119	=119	=119	=119	=119	=119
2g_	2r	2r	2r	2G_	8bb-	8gg	8cc	4C	4C	8ee	16g
.	.	.	.	.	.	.	.	.	.	.	16f
.	.	.	.	.	8r	8r	8r	.	.	8r	16g
.	.	.	.	.	.	.	.	.	.	.	16c
.	.	.	.	.	8aa-	8ff	8b	4r	4r	8aa-	16f
.	.	.	.	.	.	.	.	.	.	.	16e
.	.	.	.	.	8r	8r	8r	.	.	8r	16f
.	.	.	.	.	.	.	.	.	.	.	16c
=120	=120	=120	=120	=120	=120	=120	=120	=120	=120	=120	=120
4g]	16cc	16c	16c	4G]	8gg	4ee	4cc	4C	4C	4gg	4e
.	16b	16B	16B	.	.	.	.	.	.	.	.
.	16cc	16c	16c	.	4r	.	.	.	.	.	.
.	16dd-	16d-	16d-	.	.	.	.	.	.	.	.
4r	16cc	16c	16c	4r	.	8r	8r	4r	4r	8r	8r
.	16b-	16B-	16B-	.	.	.	.	.	.	.	.
.	16a-	16A-	16A-	.	8cc	8cc	8cc	.	.	8cc	8cc
.	16g	16G	16G	.	.	.	.	.	.	.	.
=121	=121	=121	=121	=121	=121	=121	=121	=121	=121	=121	=121
4cc	16f	16F	16F	4c	4aa-	4aa-	4cc	4A-	4F	8aa- 8cc 8f	8aa- 8cc 8f
.	16e	16E	16E	.	.	.	.	.	.	.	.
.	16f	16F	16F	.	.	.	.	.	.	8r	8r
.	16a-	16A-	16A-	.	.	.	.	.	.	.	.
4dd	16cc	16c	16c	4g	4ee	4ee	4b-	4G	4C	8ee 8b- 8g	8ee 8b- 8g
.	16dd-	16d-	16d-	.	.	.	.	.	.	.	.
.	16cc	16c	16c	.	.	.	.	.	.	8r	8r
.	16b-	16B-	16B-	.	.	.	.	.	.	.	.
=122	=122	=122	=122	=122	=122	=122	=122	=122	=122	=122	=122
4cc	16a-	16A-	16A-	4c	4ff	4ff	4a-	4F	4AA-	8ff 8cc 8f	8ff 8f 8cc
.	16b-	16B-	16B-	.	.	.	.	.	.	.	.
.	16a-	16A-	16A-	.	.	.	.	.	.	4r	4r
.	16g	16G	16G	.	.	.	.	.	.	.	.
8r	16f	16F	16F	8r	8r	8r	8r	8r	8r	.	.
.	16a-	16A-	16A-	.	.	.	.	.	.	.	.
8cc	16g	16G	16G	8c	8cc	8cc	8cc	8A-	8F	8cc	8cc
.	16f	16F	16F	.	.	.	.	.	.	.	.
=123	=123	=123	=123	=123	=123	=123	=123	=123	=123	=123	=123
4dd	16e	16E	16E	4g	4bb-	4bb-	4gg	4B-	4G	8e 8cc 8bb-	8bb- 8cc 8e
.	16c	16C	16C	.	.	.	.	.	.	.	.
.	16d	16D	16D	.	.	.	.	.	.	8r	8r
.	16e	16E	16E	.	.	.	.	.	.	.	.
4cc	16f	16F	16F	4c	4aa-	4aa-	4ff	4A-	4F	8aa- 8cc 8f	8aa- 8cc 8f
.	16g	16G	16G	.	.	.	.	.	.	.	.
.	16a-	16A-	16A-	.	.	.	.	.	.	8r	8r
.	16b-	16B-	16B-	.	.	.	.	.	.	.	.
=124	=124	=124	=124	=124	=124	=124	=124	=124	=124	=124	=124
4g	16cc	16c	16c	4G	4gg	4gg	4ee	4G	4C	4gg 4cc 4e	8gg 8cc 8e
.	16dd-	16d-	16d-	.	.	.	.	.	.	.	.
.	16cc	16c	16c	.	.	.	.	.	.	.	4r
.	16b	16B	16B	.	.	.	.	.	.	.	.
8r	16cc	16c	16c	8r	8r	8r	8r	8r	8r	8r	.
.	16b-	16B-	16B-	.	.	.	.	.	.	.	.
8dd	16a-	16A-	16A-	8g	8gg	8gg	8ee	8G	8E	8gg 8cc	8ee 8cc
.	16g	16G	16G	.	.	.	.	.	.	.	.
=125	=125	=125	=125	=125	=125	=125	=125	=125	=125	=125	=125
4cc	16f	16F	16F	4c	4aa-	4aa-	4ff	4A-	4F	8f 8aa- 8cc	8ff 8cc
.	16g	16G	16G	.	.	.	.	.	.	.	.
.	16f	16F	16F	.	.	.	.	.	.	8r	8r
.	16e	16E	16E	.	.	.	.	.	.	.	.
4cc	16f	16F	16F	4c	4aa	4aa	4cc	4c	4A	8aa 8f 8cc	8ee- 8f
.	16e-	16E-	16E-	.	.	.	.	.	.	.	.
.	16d-	16D-	16D-	.	.	.	.	.	.	8r	8r
.	16c	16C	16C	.	.	.	.	.	.	.	.
=126	=126	=126	=126	=126	=126	=126	=126	=126	=126	=126	=126
4cc	16B-	16BB-	16BB-	4c	4bb-	4bb-	4dd-	4d-	4B-	4bb- 4dd- 4f	4dd- 4f
.	16d-	16D-	16D-	.	.	.	.	.	.	.	.
.	16f	16F	16F	.	.	.	.	.	.	.	.
.	16b-	16B-	16B-	.	.	.	.	.	.	.	.
4r	16dd-	16d-	16d-	4r	8r	8r	8r	16d-	16d-	8r	8r
.	16cc	16c	16c	.	.	.	.	16c	16c	.	.
.	16dd-	16d-	16d-	.	8gg	8gg	8dd-	16d-	16d-	8b- 8gg	8gg 8b-
.	16b-	16B-	16B-	.	.	.	.	16B-	16B-	.	.
=127	=127	=127	=127	=127	=127	=127	=127	=127	=127	=127	=127
4cc	16cc	16c	16c	4c	4ff	4aa-	4cc	16c	16c	8aa- 8cc	8cc 8ff
.	16b	16B	16B	.	.	.	.	16B	16B	.	.
.	16cc	16c	16c	.	.	.	.	16c	16c	8r	8r
.	16c	16C	16C	.	.	.	.	16C	16C	.	.
4g	16cc	16c	16c	4G	4ee	4ee	4b-	16c	16c	8ee 8g 8b-	8ee 8b- 8g
.	16b	16B	16B	.	.	.	.	16B	16B	.	.
.	16cc	16c	16c	.	.	.	.	16c	16c	8r	8r
.	16c	16C	16C	.	.	.	.	16C	16C	.	.
=128	=128	=128	=128	=128	=128	=128	=128	=128	=128	=128	=128
4cc	4f	4F	4F	4c	4ff	4ff	4a-	4F	4F	8ff 8cc 8f	4ff 4cc 4f
.	.	.	.	.	.	.	.	.	.	4r	.
8r	8r	8r	8r	8r	8r	8r	8r	8r	8r	.	8r
8r	8r	8r	8r	8r	8r	8r	8r	8A	8r	8a	8r
=129	=129	=129	=129	=129	=129	=129	=129	=129	=129	=129	=129
2r	2r	2r	2r	2r	2r	2r	2r	8B-	2r	8b-	2r
.	.	.	.	.	.	.	.	16G	.	16g	.
.	.	.	.	.	.	.	.	16r	.	16r	.
.	.	.	.	.	.	.	.	8c	.	8cc	.
.	.	.	.	.	.	.	.	16A	.	16a	.
.	.	.	.	.	.	.	.	16r	.	16r	.
=130	=130	=130	=130	=130	=130	=130	=130	=130	=130	=130	=130
2r	2r	2r	2r	2r	2r	2r	2r	4d	2r	4dd	2r
.	.	.	.	.	.	.	.	8B-	.	8b-	.
.	.	.	.	.	.	.	.	8G	.	8g	.
=131	=131	=131	=131	=131	=131	=131	=131	=131	=131	=131	=131
2r	8G	8C	8C	2r	2r	2r	2r	8E	2r	8e	8e 8B-
.	8G	8C	8C	.	.	.	.	8E	.	8e	8e 8B-
.	8A	8C	8C	.	.	.	.	8F	.	8f	8f 8A
.	8A	8C	8C	.	.	.	.	8F	.	8f	8f 8A
=132	=132	=132	=132	=132	=132	=132	=132	=132	=132	=132	=132
2r	4c	4C	4C	2r	2r	2r	2r	16G	2r	16g	4e 4G
.	.	.	.	.	.	.	.	16F	.	16f	.
.	.	.	.	.	.	.	.	16G	.	16g	.
.	.	.	.	.	.	.	.	16A	.	16a	.
.	4r	4r	4r	.	.	.	.	8G	.	8g	4r
.	.	.	.	.	.	.	.	8A	.	8a	.
=133	=133	=133	=133	=133	=133	=133	=133	=133	=133	=133	=133
2r	2r	2r	2r	2r	2r	2r	2r	8B-	2r	8b-	2r
.	.	.	.	.	.	.	.	16G	.	16g	.
.	.	.	.	.	.	.	.	16r	.	16r	.
.	.	.	.	.	.	.	.	8c	.	8cc	.
.	.	.	.	.	.	.	.	16A	.	16a	.
.	.	.	.	.	.	.	.	16r	.	16r	.
=134	=134	=134	=134	=134	=134	=134	=134	=134	=134	=134	=134
2r	4.r	4.r	4.r	2r	2r	2r	2r	4d	2r	4dd	4.r
.	.	.	.	.	.	.	.	8B-	.	8b-	.
.	8B-	8BB-	8BB-	.	.	.	.	8G	.	8g	8e 8c
=135	=135	=135	=135	=135	=135	=135	=135	=135	=135	=135	=135
2r	8A	8AA	8AA	2r	2r	2r	2r	8c	2r	8cc	8f 8c
.	8F	8AA	8AA	.	.	.	.	8A	.	8a	8f 8c
.	8c	8C	8C	.	.	.	.	16G	.	16g	8B- 8e
.	.	.	.	.	.	.	.	16F	.	16f	.
.	8c	8C	8C	.	.	.	.	16G	.	16g	8B- 8e
.	.	.	.	.	.	.	.	16A	.	16a	.
=136	=136	=136	=136	=136	=136	=136	=136	=136	=136	=136	=136
2r	4F	8FF	8FF	2r	4.r	4.r	4.r	4F	4.r	4f	4f 4A
.	.	8F	8F	.	.	.	.	.	.	.	.
.	4r	8FF	8FF	.	.	.	.	8r	.	8r	4r
.	.	8r	8r	.	8aa	8aa	8ff#	8A	8F#	8a	.
=137	=137	=137	=137	=137	=137	=137	=137	=137	=137	=137	=137
2r	2r	2r	2r	2r	8bb-	8r	8r	8B-	8G	8b-	2r
.	.	.	.	.	16gg	8bb-	8gg	8r	8r	16g	.
.	.	.	.	.	16r	.	.	.	.	16r	.
.	.	.	.	.	8ccc	8r	8r	8c	8A	8cc	.
.	.	.	.	.	16aa	8ccc	8aa	8r	8r	16a	.
.	.	.	.	.	16r	.	.	.	.	16r	.
=138	=138	=138	=138	=138	=138	=138	=138	=138	=138	=138	=138
2r	2r	2r	2r	2r	4ddd	8r	8r	4d	4B-	4dd	2r
.	.	.	.	.	.	8ddd	8bb-	.	.	.	.
.	.	.	.	.	8bb-	8bb-	8gg	4r	4r	8b-	.
.	.	.	.	.	8gg	8gg	8ee	.	.	8g	.
=139	=139	=139	=139	=139	=139	=139	=139	=139	=139	=139	=139
8r	8G	8C	8C	8r	8ee	8r	8r	8r	8r	8e	8e 8B-
8dd	8G	8C	8C	8g	8ee	8ee	8b-	8B-	8G	8e	8e 8B-
8r	8F	8C	8C	8r	8ff	8r	8r	8r	8r	8f	8f 8A
8ee	8F	8C	8C	8cc	8ff	8ff	8a	8A	8F	8f	8f 8A
=140	=140	=140	=140	=140	=140	=140	=140	=140	=140	=140	=140
8r	4c	4C	4C	8r	16gg	16gg	8r	8r	8r	16g	4G 4e
.	.	.	.	.	16ff	16ff	.	.	.	16f	.
8dd	.	.	.	8g	16gg	16gg	16ee	8G	8C	16g	.
.	.	.	.	.	16aa	16aa	16ff	.	.	16a	.
8dd	4r	4r	4r	8g	8gg	8gg	8ee	8G	8C	8g	4r
8r	.	.	.	8r	8aa	8aa	8ff#	8A	8F#	8a	.
=141	=141	=141	=141	=141	=141	=141	=141	=141	=141	=141	=141
2r	2r	2r	2r	2r	8bb-	8r	8r	8B-	8G	8b-	2r
.	.	.	.	.	16gg	8bb-	8gg	8r	8r	16g	.
.	.	.	.	.	16r	.	.	.	.	16r	.
.	.	.	.	.	8ccc	8r	8r	8c	8A	8cc	.
.	.	.	.	.	16aa	8ccc	8aa	8r	8r	16a	.
.	.	.	.	.	16r	.	.	.	.	16r	.
=142	=142	=142	=142	=142	=142	=142	=142	=142	=142	=142	=142
2r	4.r	4.r	4.r	2r	4ddd	8r	8r	4d	4B-	4dd	4.r
.	.	.	.	.	.	8ddd	8bb-	.	.	.	.
.	.	.	.	.	8bb-	8bb-	8gg	4r	4r	8b-	.
.	8B-	8BB-	8BB-	.	8gg	8gg	8ee	.	.	8g	8e 8c
=143	=143	=143	=143	=143	=143	=143	=143	=143	=143	=143	=143
8r	8A	8AA	8AA	8r	8ccc	8r	8r	8r	8r	8cc	8f 8c
8ee	8F	8AA	8AA	8cc	8aa	8aa	8cc	8A	8F	8a	8f 8c
8r	8c	8C	8C	8r	16gg	16gg	16b-	16G	8C	16g	8B- 8e
.	.	.	.	.	16ff	16ff	16a	16F	.	16f	.
8dd	8c	8C	8C	8g	16gg	16gg	16b-	16G	8C	16g	8B- 8e
.	.	.	.	.	16aa	16aa	16cc	16A	.	16a	.
=144	=144	=144	=144	=144	=144	=144	=144	=144	=144	=144	=144
8r	8F	8FF	8FF	8r	4ff	8ff	8a	8F	8AA	4f	4f 4A
8cc	8f	8F	8F	8e	.	8ff	8a	8F	8AA	.	.
8cc	8F	8FF	8FF	8e	4r	8ff	8a	8F	8AA	8r	4r
8r	8r	8r	8r	8r	.	8r	8r	8f	8r	8ff	.
=145	=145	=145	=145	=145	=145	=145	=145	=145	=145	=145	=145
2r	4F	4F	4F	2r	2r	2r	2r	8A	8F	8a	8f
.	.	.	.	.	.	.	.	8A	8F	8a	8f
.	4r	4r	4r	.	.	.	.	8B-	8G	8b-	8g
.	.	.	.	.	.	.	.	8B-	8G	8b-	8g
=146	=146	=146	=146	=146	=146	=146	=146	=146	=146	=146	=146
2r	4F	4F	4F	2r	2r	4.r	2r	16c	16A	16cc	16a
.	.	.	.	.	.	.	.	16B-	16G	16b-	16g
.	.	.	.	.	.	.	.	16c	16A	16cc	16a
.	.	.	.	.	.	.	.	16d	16B-	16dd	16b-
.	4r	4r	4r	.	.	.	.	8c	8A	8cc	8a
.	.	.	.	.	.	8ff	.	8r	8r	8ff	8r
=147	=147	=147	=147	=147	=147	=147	=147	=147	=147	=147	=147
2r	4F	4F	4F	2r	2r	8a	4f	2r	2r	8a	8f
.	.	.	.	.	.	8a	.	.	.	8a	8f
.	4r	4r	4r	.	.	8b-	8g	.	.	8b-	8g
.	.	.	.	.	.	8b	8g#	.	.	8b	8g#
=148	=148	=148	=148	=148	=148	=148	=148	=148	=148	=148	=148
2r	4F	4F	4F	2r	4.r	16cc	8a	2r	2r	16cc	4a
.	.	.	.	.	.	16b	.	.	.	16b	.
.	.	.	.	.	.	16cc	4.r	.	.	16cc	.
.	.	.	.	.	.	16dd	.	.	.	16dd	.
.	4r	4r	4r	.	.	8cc	.	.	.	8cc	8r
.	.	.	.	.	8aa	8r	.	.	.	8aa	8a
=149	=149	=149	=149	=149	=149	=149	=149	=149	=149	=149	=149
2r	8r	8r	8r	2r	4aa	2r	2r	2r	2r	4aa	4a
.	8f	8f	8f	.	.	.	.	.	.	.	.
.	8e	8e	8e	.	8gg#	.	.	.	.	8gg#	8g#
.	8c#	8c#	8c#	.	8ee	.	.	.	.	8ee	8e
=150	=150	=150	=150	=150	=150	=150	=150	=150	=150	=150	=150
2r	8r	8r	8r	2r	4gg	2r	2r	2r	2r	4gg	4g
.	8e	8e	8e	.	.	.	.	.	.	.	.
.	8d	8d	8d	.	8ff	.	.	.	.	8ff	8f
.	8c	8c	8c	.	8aa	.	.	.	.	8aa	8a
=151	=151	=151	=151	=151	=151	=151	=151	=151	=151	=151	=151
2r	8r	8r	8r	2r	8aa	2r	2r	2r	2r	8aa	8a
.	8c	8c	8c	.	8aa-	.	.	.	.	8aa-	8a-
.	8B	8B	8B	.	8gg	.	.	.	.	8gg	8g
.	8G	8G	8G	.	8dd	.	.	.	.	8dd	8d
=152	=152	=152	=152	=152	=152	=152	=152	=152	=152	=152	=152
2r	8r	8r	8r	2r	4ff	2r	2r	2r	2r	4ff	4f
.	8c	8c	8c	.	.	.	.	.	.	.	.
.	8c	8C	8C	.	8ee	.	.	.	.	8ee	8e
.	8c	8c	8c	.	8gg	.	.	.	.	8gg	8e
=153	=153	=153	=153	=153	=153	=153	=153	=153	=153	=153	=153
2r	8c	8c	8c	2r	8aa	2r	2r	2r	2r	8aa	8f
.	8r	8r	8r	.	16ff	.	.	.	.	16ff	8r
.	.	.	.	.	16r	.	.	.	.	16r	.
.	8c	8c	8c	.	8ddd	.	.	.	.	8ddd	8f 8G
.	8r	8r	8r	.	16bb	.	.	.	.	16bb	8r
.	.	.	.	.	16r	.	.	.	.	16r	.
=154	=154	=154	=154	=154	=154	=154	=154	=154	=154	=154	=154
2r	4c	4c	4c	2r	16ccc	2r	2r	2r	2r	16ccc	4e 4G
.	.	.	.	.	16bb	.	.	.	.	16bb	.
.	.	.	.	.	16ccc	.	.	.	.	16ccc	.
.	.	.	.	.	16ddd	.	.	.	.	16ddd	.
.	8r	8r	8r	.	8ccc	.	.	.	.	8ccc	8r
.	8g	8c	8c	.	8gg	.	.	.	.	8gg	8e
=155	=155	=155	=155	=155	=155	=155	=155	=155	=155	=155	=155
2r	8a-	4c	4c	2r	8aa-	2r	2r	2r	2r	8aa-	4f
.	8a	.	.	.	8aa	.	.	.	.	8aa	.
.	8b-	4r	4r	.	8bb-	.	.	.	.	8bb-	4r
.	8b	.	.	.	8bb	.	.	.	.	8bb	.
=156	=156	=156	=156	=156	=156	=156	=156	=156	=156	=156	=156
2r	16cc	4c	4c	2r	16ccc	2r	2r	2r	2r	16ccc	4G 4e
.	16b	.	.	.	16bb	.	.	.	.	16bb	.
.	16cc	.	.	.	16ccc	.	.	.	.	16ccc	.
.	16dd	.	.	.	16ddd	.	.	.	.	16ddd	.
.	8cc	8r	8r	.	8ccc	.	.	.	.	8ccc	8r
.	8b-	8E	8E	.	8bb-	.	.	.	.	8bb-	8cc
=157	=157	=157	=157	=157	=157	=157	=157	=157	=157	=157	=157
2r	16a	4F	4F	2r	16aa	2r	2r	2r	2r	16aa	4cc
.	16g	.	.	.	16gg	.	.	.	.	16gg	.
.	16a	.	.	.	16aa	.	.	.	.	16aa	.
.	16b-	.	.	.	16bb-	.	.	.	.	16bb-	.
.	8a	8r	8r	.	8aa	.	.	.	.	8aa	8r
.	8c#	8c#	8c#	.	8gg	.	.	.	.	8gg	8b-
=158	=158	=158	=158	=158	=158	=158	=158	=158	=158	=158	=158
2r	16d	16d	16d	2r	16ff#	2r	2r	2r	2r	16ff#	16a
.	16r	16r	16r	.	16r	.	.	.	.	16r	16r
.	8B	8B	8B	.	8ff	.	.	.	.	8ff	8a-
.	16c	16c	16c	.	16ee	.	.	.	.	16ee	16g
.	16r	16r	16r	.	16r	.	.	.	.	16r	16r
.	8F#	8F#	8F#	.	8aa	.	.	.	.	8aa	8e-
=159	=159	=159	=159	=159	=159	=159	=159	=159	=159	=159	=159
2r	4G	4G	4G	2r	4cc	2r	2r	2r	2r	4cc	4e
.	8.B	4GG	4GG	.	16dd	.	.	.	.	16dd	4f
.	.	.	.	.	16cc	.	.	.	.	16cc	.
.	.	.	.	.	16dd	.	.	.	.	16dd	.
.	16d	.	.	.	16b	.	.	.	.	16b	.
=160	=160	=160	=160	=160	=160	=160	=160	=160	=160	=160	=160
2r	4c	[2C	[2C	2r	4cc	4.r	4.r	4.r	4.r	4cc	4e
.	4F#	.	.	.	8r	.	.	.	.	8r	4f#
.	.	.	.	.	8aa	8aa	8ff#	8A	8F#	8a	.
=161	=161	=161	=161	=161	=161	=161	=161	=161	=161	=161	=161
8r	4G	2C_	2C_	8r	8bb-	8r	8r	8r	8r	8b-	4g 4G
8g	.	.	.	8G	8gg	8bb-	8gg	8B-	8G	8g	.
8r	4A	.	.	8r	8ccc	8r	8r	8r	8r	8cc	4A
8g	.	.	.	8G	8aa	8ccc	8aa	8c	8A	8a	.
=162	=162	=162	=162	=162	=162	=162	=162	=162	=162	=162	=162
8r	2B-	2C_	2C_	8r	4ddd	8r	8r	8r	8r	4dd	2B-
8g	.	.	.	8G	.	8ddd	8bb-	8d	8B-	.	.
8g	.	.	.	8G	8bb-	8bb-	8gg	8B-	8G	8b-	.
8g	.	.	.	8G	8gg	8gg	8ee	8G	8E	8g	.
=163	=163	=163	=163	=163	=163	=163	=163	=163	=163	=163	=163
8r	8G	8C]	8C]	8r	8ee	8r	8r	8r	8r	8e	8e 8B-
8dd	8G	8C	8C	8g	8ee	8ee	8b-	8B-	8G	8e	8B- 8e
8r	8F	8C	8C	8r	8ff	8r	8r	8r	8r	8f	8f 8A
8ee	8F	8C	8C	8cc	8ff	8ff	8a	8A	8F	8f	8A 8f
=164	=164	=164	=164	=164	=164	=164	=164	=164	=164	=164	=164
8r	4.E	[2C	[2C	8r	16gg	16gg	8r	8r	8r	16g	4.G 4.e
.	.	.	.	.	16ff	16ff	.	.	.	16f	.
8dd	.	.	.	8g	16gg	16gg	16ee	16G	8C	16g	.
.	.	.	.	.	16aa	16aa	16ff	16A	.	16a	.
8dd	.	.	.	8g	8gg	8gg	8ee	8G	8C	8g	.
8r	8F#	.	.	8r	8aa	8aa	8ff#	8A	8F#	8a	8f#
=165	=165	=165	=165	=165	=165	=165	=165	=165	=165	=165	=165
8r	4G	2C_	2C_	8r	8bb-	8r	8r	8r	8r	8b-	4g 4G
8g	.	.	.	8G	8gg	8bb-	8gg	8B-	8G	8g	.
8r	4A	.	.	8r	8ccc	8r	8r	8r	8r	8cc	4A
8g	.	.	.	8G	8aa	8ccc	8aa	8c	8A	8a	.
=166	=166	=166	=166	=166	=166	=166	=166	=166	=166	=166	=166
8r	4.B-	4.C]	4.C]	8r	4ddd	8r	8r	8r	8r	4dd	4.B-
8g	.	.	.	8G	.	8ddd	8bb-	8d	8B-	.	.
8g	.	.	.	8G	16ccc	8bb-	8gg	8B-	8G	8b-	.
.	.	.	.	.	16bb-	.	.	.	.	.	.
8g	8B-	8BB-	8BB-	8G	16aa	8gg	8ee	8G	8E	8g	8e 8c
.	.	.	.	.	16gg	.	.	.	.	.	.
=167	=167	=167	=167	=167	=167	=167	=167	=167	=167	=167	=167
8r	8A	8AA	8AA	8r	8ccc	8r	8r	8r	8r	8cc	8f 8c
8cc	8F	8AA	8AA	8e	8aa	8aa	8cc	8A	8F	8a	8f 8c
8r	8c	8C	8C	8r	16gg	16gg	16b-	8r	8r	16g	8e 8B-
.	.	.	.	.	16ff	16ff	16a	.	.	16f	.
8dd	8c	8C	8C	8g	16gg	16gg	16b-	8G	8C	16g	8B- 8e
.	.	.	.	.	16aa	16aa	16cc	.	.	16a	.
=168	=168	=168	=168	=168	=168	=168	=168	=168	=168	=168	=168
[2cc	4F	8FF	8FF	[2c	4ff	4ff	4a	8r	8r	4f	4f 4A
.	.	8F	8F	.	.	.	.	8F	8AA	.	.
.	4r	8FF	8FF	.	4r	4r	4r	8F	8AA	8r	4r
.	.	8r	8r	.	.	.	.	8f	8r	8ff	.
=169	=169	=169	=169	=169	=169	=169	=169	=169	=169	=169	=169
2cc_	4f	4F	4F	2c_	2r	2r	2r	8A	8F	8a	8f
.	.	.	.	.	.	.	.	8A	8F	8a	8f
.	4r	4r	4r	.	.	.	.	8B-	8G	8b-	8g
.	.	.	.	.	.	.	.	8B-	8G	8b-	8g
=170	=170	=170	=170	=170	=170	=170	=170	=170	=170	=170	=170
2cc_	4f	4F	4F	2c_	2r	4.r	4.r	16c	16A	16cc	16a
.	.	.	.	.	.	.	.	16B-	16G	16b-	16g
.	.	.	.	.	.	.	.	16c	16A	16cc	16a
.	.	.	.	.	.	.	.	16d	16B-	16dd	16b-
.	4r	4r	4r	.	.	.	.	8c	8A	8cc	8a
.	.	.	.	.	.	8ff	8f	8r	8r	8ff	8r
=171	=171	=171	=171	=171	=171	=171	=171	=171	=171	=171	=171
2cc_	4f	4F	4F	2c_	2r	8cc	8a	2r	2r	8cc	8a
.	.	.	.	.	.	8cc	8a	.	.	8cc	8a
.	4r	4r	4r	.	.	8dd	8b-	.	.	8dd	8b-
.	.	.	.	.	.	8dd	8b-	.	.	8dd	8b-
=172	=172	=172	=172	=172	=172	=172	=172	=172	=172	=172	=172
2cc_	4f	4F	4F	2c_	2r	16ee-	16cc	2r	2r	16ee-	16cc
.	.	.	.	.	.	16dd	16b-	.	.	16dd	16b-
.	.	.	.	.	.	16ee-	16cc	.	.	16ee-	16cc
.	.	.	.	.	.	16ff	16dd	.	.	16ff	16dd
.	8r	8r	8r	.	.	8ee-	8cc	.	.	8ee-	8cc
.	8f	8F	8F	.	.	8cc	8cc	.	.	8cc	8cc
=173	=173	=173	=173	=173	=173	=173	=173	=173	=173	=173	=173
4cc]	8B-	8B-	8B-	4c]	2r	8dd	8dd	2r	2r	8dd	8dd
.	8A	8A	8A	.	.	8ff#	8cc	.	.	8ff#	8cc
4r	8B-	8B-	8B-	4r	.	8gg	8dd	.	.	8gg	8dd
.	8G	8G	8G	.	.	8bb-	8b-	.	.	8bb-	8dd
=174	=174	=174	=174	=174	=174	=174	=174	=174	=174	=174	=174
2r	4c	4c	4c	2r	2r	4ff	4a	2r	2r	4ff	4a
.	8C	8C	8C	.	.	8ee	8g	.	.	8ee	8g
.	8r	8F	8F	.	.	8r	8r	.	.	8ccc	8a
=175	=175	=175	=175	=175	=175	=175	=175	=175	=175	=175	=175
2r	2C	8G	8G	2r	[2ccc	2r	2r	2G	2C	16ccc	8b-
.	.	.	.	.	.	.	.	.	.	16ccc	.
.	.	16E	16E	.	.	.	.	.	.	16ccc	16g
.	.	16r	16r	.	.	.	.	.	.	16ccc	16r
.	.	8E	8E	.	.	.	.	.	.	16ccc	8g
.	.	.	.	.	.	.	.	.	.	16ccc	.
.	.	16C	16C	.	.	.	.	.	.	16ccc	16e
.	.	16r	16r	.	.	.	.	.	.	16ccc	16r
=176	=176	=176	=176	=176	=176	=176	=176	=176	=176	=176	=176
2r	4F	4A	4A	2r	2ccc_	4.r	4.r	4A	4F	16ccc	4cc
.	.	.	.	.	.	.	.	.	.	16ccc	.
.	.	.	.	.	.	.	.	.	.	16ccc	.
.	.	.	.	.	.	.	.	.	.	16ccc	.
.	8r	8F	8F	.	.	.	.	8r	8r	16ccc	8a
.	.	.	.	.	.	.	.	.	.	16ccc	.
.	8f	8r	8r	.	.	8aa	8ff	8A	8F	16ccc	8aa
.	.	.	.	.	.	.	.	.	.	16ccc	.
=177	=177	=177	=177	=177	=177	=177	=177	=177	=177	=177	=177
2dd	8g	2r	2r	2g	2ccc_	8bb-	8gg	8B-	8G	16ccc	8bb-
.	.	.	.	.	.	.	.	.	.	16ccc	.
.	16e	.	.	.	.	16gg	16ee	16G	16E	16ccc	16gg
.	16r	.	.	.	.	16r	16r	16r	16r	16ccc	16r
.	8e	.	.	.	.	8gg	8ee	8G	8E	16ccc	8gg
.	.	.	.	.	.	.	.	.	.	16ccc	.
.	16c	.	.	.	.	16ee	16cc	16E	16C	16ccc	16ee
.	16r	.	.	.	.	16r	16r	16r	16r	16ccc	16r
=178	=178	=178	=178	=178	=178	=178	=178	=178	=178	=178	=178
2ee	4a	4.r	4.r	2cc	2ccc_	4ccc	4aa	4c	4A	16ccc	4ccc
.	.	.	.	.	.	.	.	.	.	16ccc	.
.	.	.	.	.	.	.	.	.	.	16ccc	.
.	.	.	.	.	.	.	.	.	.	16ccc	.
.	8f	.	.	.	.	8aa	8ff	8A	8F	16ccc	8aa
.	.	.	.	.	.	.	.	.	.	16ccc	.
.	8r	8F	8F	.	.	8r	8r	8r	8r	16ccc	8a
.	.	.	.	.	.	.	.	.	.	16ccc	.
=179	=179	=179	=179	=179	=179	=179	=179	=179	=179	=179	=179
2r	2C	8G	8G	2r	2ccc]	2r	2r	2G	2C	16ccc	8b-
.	.	.	.	.	.	.	.	.	.	16ccc	.
.	.	16E	16E	.	.	.	.	.	.	16ccc	16g
.	.	16r	16r	.	.	.	.	.	.	16ccc	16r
.	.	8E	8E	.	.	.	.	.	.	16ccc	8g
.	.	.	.	.	.	.	.	.	.	16ccc	.
.	.	16C	16C	.	.	.	.	.	.	16ccc	16e
.	.	16r	16r	.	.	.	.	.	.	16ccc	16r
=180	=180	=180	=180	=180	=180	=180	=180	=180	=180	=180	=180
2r	4F	4A	4A	2r	4.ccc	2r	2r	4A	4F	16ccc	4cc
.	.	.	.	.	.	.	.	.	.	16ccc	.
.	.	.	.	.	.	.	.	.	.	16ccc	.
.	.	.	.	.	.	.	.	.	.	16ccc	.
.	4r	8F	8F	.	.	.	.	4r	4r	8ccc	8a
.	.	8r	8r	.	8fff	.	.	.	.	8fff	8ff
=181	=181	=181	=181	=181	=181	=181	=181	=181	=181	=181	=181
2cc	16A	16AA	8AA	2c	8fff	2ccc	[2ff	2c	2F	8fff	8ff
.	16f	16F	.	.	.	.	.	.	.	.	.
.	16A	16AA	8AA	.	16ccc	.	.	.	.	16ccc	16cc
.	16f	16F	.	.	16r	.	.	.	.	16r	16r
.	16A	16AA	8AA	.	8ccc	.	.	.	.	8ccc	8cc
.	16f	16F	.	.	.	.	.	.	.	.	.
.	16A	16AA	8AA	.	16aa	.	.	.	.	16aa	16a
.	16f	16F	.	.	16r	.	.	.	.	16r	16r
=182	=182	=182	=182	=182	=182	=182	=182	=182	=182	=182	=182
2cc	16B-	16BB-	8BB-	2c	4ddd	4ddd	2ff]	4.d	4.B-	4ddd	4dd
.	16f	16F	.	.	.	.	.	.	.	.	.
.	16B-	16BB-	8BB-	.	.	.	.	.	.	.	.
.	16f	16F	.	.	.	.	.	.	.	.	.
.	16B-	16BB-	8BB-	.	8bb-	8bb-	.	.	.	8bb-	8b-
.	16f	16F	.	.	.	.	.	.	.	.	.
.	16B-	16BB-	8BB-	.	8bb-	8bb-	.	8B-	8G	8bb-	8b-
.	16f	16F	.	.	.	.	.	.	.	.	.
=183	=183	=183	=183	=183	=183	=183	=183	=183	=183	=183	=183
2g	16c	16C	8C	2G	8aa	8aa	8ff	8A	8F	8aa	8a
.	16f	16F	.	.	.	.	.	.	.	.	.
.	16c	16C	8C	.	8aa	8aa	8ff	8A	8F	8aa	8a
.	16f	16F	.	.	.	.	.	.	.	.	.
.	16c	16C	8C	.	16gg	16gg	8ee	16G	8C	16gg	16g
.	16e	16E	.	.	16ff	16ff	.	16F	.	16ff	16f
.	16c	16C	8C	.	16gg	16gg	8ee	16G	8C	16gg	16g
.	16e	16E	.	.	16aa	16aa	.	16A	.	16aa	16a
=184	=184	=184	=184	=184	=184	=184	=184	=184	=184	=184	=184
8cc	8f	4FF	4FF	8e	4ff	8ff	8ff	8F	8F	4ff	8f 8A
4cc	4f 4A	.	.	4e	.	4ff	4cc	4c	4F	.	4f 4A
.	.	4F	4F	.	8r	.	.	.	.	8r	.
8cc	8f 8A	.	.	8e	8ff	8ff	[8cc	8c	8F	8ff	8f 8A
=185	=185	=185	=185	=185	=185	=185	=185	=185	=185	=185	=185
8dd	8e 8G	4FF	4FF	8g	8ee	8gg	8cc]	8B-	8E	8ee	8B- 8e
4dd	4G 4e	.	.	4g	8gg	4gg	4cc	4B-	4G	8gg	4B- 4e
.	.	4F	4F	.	8cc	.	.	.	.	8cc	.
8dd	8G 8e	.	.	8g	8bb-	8gg	[8cc	8B-	8C	8bb-	8e 8B-
=186	=186	=186	=186	=186	=186	=186	=186	=186	=186	=186	=186
8cc	8f 8A	4FF	4FF	8e	8aa	8ff	8cc]	8A	8F	8aa	8A 8f
4cc	4f 4A	.	.	4e	4ccc	4ff	4cc	4A	4F	4ccc	4f 4A
.	.	4F	4F	.	.	.	.	.	.	.	.
8cc	8A 8f	.	.	8e	16aa	8ff	[8cc	8c	8A	16aa	8f 8A
.	.	.	.	.	16ff	.	.	.	.	16ff	.
=187	=187	=187	=187	=187	=187	=187	=187	=187	=187	=187	=187
8dd	8e 8G	4FF	4FF	8g	8ee	8gg	8cc]	8B-	8E	8ee	8B- 8e
4dd	4e 4G	.	.	4g	8gg	4gg	4cc	4B-	4G	8gg	4e 4B-
.	.	4F	4F	.	8cc	.	.	.	.	8cc	.
8dd	8G 8e	.	.	8g	8ee	8gg	[8cc	8B-	8C	8ee	8B- 8e
=188	=188	=188	=188	=188	=188	=188	=188	=188	=188	=188	=188
8cc	8f 8A	4FF	4FF	8e	16ff	16ff	8cc]	8A	8F	16ff	8A 8f
.	.	.	.	.	16ee	16ee	.	.	.	16ee	.
4cc	4f 4A	.	.	4e	16ff	16ff	4cc	4A	4F	16ff	4f 4A
.	.	.	.	.	16gg	16gg	.	.	.	16gg	.
.	.	4F	4F	.	8ff	8ff	.	.	.	8ff	.
8cc	8A 8f	.	.	8e	8ff	8ff	[8cc	8c	8A	8ff	8f 8A
=189	=189	=189	=189	=189	=189	=189	=189	=189	=189	=189	=189
8dd	8e 8G	4FF	4FF	8g	8ee	8gg	8cc]	8B-	8E	8ee	8B- 8e
4dd	4G 4e	.	.	4g	8gg	4gg	4cc	4B-	4G	8gg	4e 4B-
.	.	4F	4F	.	8cc	.	.	.	.	8cc	.
8dd	8G 8e	.	.	8g	8bb-	8gg	[8cc	8B-	8C	8bb-	8B- 8e
=190	=190	=190	=190	=190	=190	=190	=190	=190	=190	=190	=190
8cc	8f 8A	4FF	4FF	8e	8aa	8ff	8cc]	8A	8F	8aa	8f 8A
4cc	4f 4A	.	.	4e	4ccc	4ff	4cc	4A	4F	4ccc	4f 4A
.	.	4F	4F	.	.	.	.	.	.	.	.
8cc	8A 8f	.	.	8e	16aa	8ff	[8cc	8c	8A	16aa	8f 8A
.	.	.	.	.	16ff	.	.	.	.	16ff	.
=191	=191	=191	=191	=191	=191	=191	=191	=191	=191	=191	=191
8dd	8G 8e	4FF	4FF	8g	8ee	8gg	8cc]	8B-	8E	8ee	8e 8B-
4dd	4e 4G	.	.	4g	8gg	4gg	4cc	4B-	4G	8gg	4B- 4e
.	.	4F	4F	.	8cc	.	.	.	.	8cc	.
8dd	8G 8e	.	.	8g	8bb-	8gg	[8cc	8B-	8C	8bb-	8B- 8e
=192	=192	=192	=192	=192	=192	=192	=192	=192	=192	=192	=192
4cc	4f 4A	4FF	4FF	4e	4aa	8ff	8cc]	4A	8F	8aa	4A 4f
.	.	.	.	.	.	4r	4r	.	4r	4r	.
4r	8r	4r	4r	4r	8r	.	.	8r	.	.	8r
.	8a	.	.	.	8aa	8aa	8ff#	8A	8F#	8aa	8f#
=193	=193	=193	=193	=193	=193	=193	=193	=193	=193	=193	=193
2r	8b-	2r	2r	2r	8bb-	8bb-	8gg	8B-	8G	8bb-	8g
.	16g	.	.	.	16gg	8r	8r	8r	8r	16gg	8r
.	16r	.	.	.	16r	.	.	.	.	16r	.
.	8cc	.	.	.	8ccc	8ccc	8aa	8c	8A	8ccc	8a
.	16a	.	.	.	16aa	8r	8r	8r	8r	16aa	8r
.	16r	.	.	.	16r	.	.	.	.	16r	.
=194	=194	=194	=194	=194	=194	=194	=194	=194	=194	=194	=194
2r	4dd	2G	2G	2r	4ddd	4ddd	4bb-	4d	4B-	4ddd	2b- 2d
.	8b-	.	.	.	8bb-	8bb-	4r	4r	4r	8bb-	.
.	8g	.	.	.	8gg	8gg	.	.	.	8gg	.
=195	=195	=195	=195	=195	=195	=195	=195	=195	=195	=195	=195
2r	8d	8D	8D	2r	8ff#	8ff#	8cc	8c	8A	8ff#	8cc 8a
.	8d	8D	8D	.	8ff#	8r	8r	8r	8r	8ff#	8cc 8a
.	8d	8D	8D	.	8gg	8gg	8b-	8B-	8G	8gg	8b- 8g
.	8d	8D	8D	.	8gg	8r	8r	8r	8r	8gg	8b- 8g
=196	=196	=196	=196	=196	=196	=196	=196	=196	=196	=196	=196
2r	4d	4D	4D	2r	16aa	8aa	8a	4A	4F#	16aa	4a 4f#
.	.	.	.	.	16gg	.	.	.	.	16gg	.
.	.	.	.	.	16aa	4r	4r	.	.	16aa	.
.	.	.	.	.	16bb-	.	.	.	.	16bb-	.
.	8r	4r	4r	.	8aa	.	.	8r	8r	8aa	8r
.	8a	.	.	.	8aa	8aa	8ff#	8A	8F#	8aa	8f#
=197	=197	=197	=197	=197	=197	=197	=197	=197	=197	=197	=197
2r	8b-	2r	2r	2r	8bb-	8bb-	8gg	8B-	8G	8bb-	8g
.	16g	.	.	.	16gg	8r	8r	8r	8r	16gg	8r
.	16r	.	.	.	16r	.	.	.	.	16r	.
.	8cc	.	.	.	8ccc	8ccc	8aa	8c	8A	8ccc	8a
.	16a	.	.	.	16aa	8r	8r	8r	8r	16aa	8r
.	16r	.	.	.	16r	.	.	.	.	16r	.
=198	=198	=198	=198	=198	=198	=198	=198	=198	=198	=198	=198
2r	2dd	[2BB-	[2BB-	2r	2ddd	2ddd	2gg	[2d	[2B-	2ddd	[2g
=199	=199	=199	=199	=199	=199	=199	=199	=199	=199	=199	=199
2r	4b-	2BB-]	2BB-]	2r	4bb-	4bb-	2dd	2d]	2B-]	4bb-	2g]
.	4g	.	.	.	4gg	4gg	.	.	.	4gg	.
=200	=200	=200	=200	=200	=200	=200	=200	=200	=200	=200	=200
[2g	2f	[2C	[2C	[2G	2ff	2ff	[2b-	[2B-	[2G	2ff	[2b- 2g
=201	=201	=201	=201	=201	=201	=201	=201	=201	=201	=201	=201
4g]	4e	4C]	4C]	4G]	4ee	4ee	4b-]	4B-]	4G]	4ee	4b- 4g]
4r	8r	8r	8r	4r	8r	4r	4r	4r	4r	8r	8r
.	8g	8C	8C	.	8bb-	.	.	.	.	8bb-	8ee
=202	=202	=202	=202	=202	=202	=202	=202	=202	=202	=202	=202
2r	8f	8F	8F	2r	8aa	2r	2r	2r	2r	8aa	8ff
.	8f	8F	8F	.	8aa	.	.	.	.	8aa	8cc
.	8e	8C	8C	.	16gg	.	.	.	.	16gg	16b-
.	.	.	.	.	16ff	.	.	.	.	16ff	16a
.	8e	8C	8C	.	16gg	.	.	.	.	16gg	16b-
.	.	.	.	.	16aa	.	.	.	.	16aa	16cc
=203	=203	=203	=203	=203	=203	=203	=203	=203	=203	=203	=203
2cc	4f	4F	4F	2e	[2ccc	2r	2r	2F	2AA	16ff	4a
.	.	.	.	.	.	.	.	.	.	16ccc	.
.	.	.	.	.	.	.	.	.	.	16ccc	.
.	.	.	.	.	.	.	.	.	.	16ccc	.
.	4r	8r	8r	.	.	.	.	.	.	16ccc	8r
.	.	.	.	.	.	.	.	.	.	16ccc	.
.	.	8F	8F	.	.	.	.	.	.	16ccc	8a
.	.	.	.	.	.	.	.	.	.	16ccc	.
=204	=204	=204	=204	=204	=204	=204	=204	=204	=204	=204	=204
2dd	2C	8G	8G	2g	2ccc_	2r	2r	2G	2C	16ccc	8b-
.	.	.	.	.	.	.	.	.	.	16ccc	.
.	.	16E	16E	.	.	.	.	.	.	16ccc	16g
.	.	16r	16r	.	.	.	.	.	.	16ccc	16r
.	.	8E	8E	.	.	.	.	.	.	16ccc	8g
.	.	.	.	.	.	.	.	.	.	16ccc	.
.	.	16C	16C	.	.	.	.	.	.	16ccc	16e
.	.	16r	16r	.	.	.	.	.	.	16ccc	16r
=205	=205	=205	=205	=205	=205	=205	=205	=205	=205	=205	=205
2ee	4F	4A	4A	2cc	2ccc_	4.r	4.r	4A	4F	16ccc	4cc
.	.	.	.	.	.	.	.	.	.	16ccc	.
.	.	.	.	.	.	.	.	.	.	16ccc	.
.	.	.	.	.	.	.	.	.	.	16ccc	.
.	8r	8F	8F	.	.	.	.	8r	8r	16ccc	8a
.	.	.	.	.	.	.	.	.	.	16ccc	.
.	8f	8r	8r	.	.	8aa	8ff	8A	8F	16ccc	8aa
.	.	.	.	.	.	.	.	.	.	16ccc	.
=206	=206	=206	=206	=206	=206	=206	=206	=206	=206	=206	=206
2dd	8g	2r	2r	2g	2ccc_	8bb-	8gg	8B-	8G	16ccc	8bb-
.	.	.	.	.	.	.	.	.	.	16ccc	.
.	16e	.	.	.	.	16gg	16ee	16G	16E	16ccc	16gg
.	16r	.	.	.	.	16r	16r	16r	16r	16ccc	16r
.	8e	.	.	.	.	8gg	8ee	8G	8E	16ccc	8gg
.	.	.	.	.	.	.	.	.	.	16ccc	.
.	16c	.	.	.	.	16ee	16cc	16E	16C	16ccc	16ee
.	16r	.	.	.	.	16r	16r	16r	16r	16ccc	16r
=207	=207	=207	=207	=207	=207	=207	=207	=207	=207	=207	=207
2ee	4a	4.r	4.r	2cc	2ccc_	4ccc	4aa	4c	4A	16ccc	4ccc
.	.	.	.	.	.	.	.	.	.	16ccc	.
.	.	.	.	.	.	.	.	.	.	16ccc	.
.	.	.	.	.	.	.	.	.	.	16ccc	.
.	8f	.	.	.	.	8aa	8ff	8A	8F	16ccc	8aa
.	.	.	.	.	.	.	.	.	.	16ccc	.
.	8r	8F	8F	.	.	8r	8r	8r	8r	16ccc	8a
.	.	.	.	.	.	.	.	.	.	16ccc	.
=208	=208	=208	=208	=208	=208	=208	=208	=208	=208	=208	=208
2dd	2C	8G	8G	2g	2ccc]	2r	2r	2G	2C	16ccc	8b-
.	.	.	.	.	.	.	.	.	.	16ccc	.
.	.	16E	16E	.	.	.	.	.	.	16ccc	16g
.	.	16r	16r	.	.	.	.	.	.	16ccc	16r
.	.	8E	8E	.	.	.	.	.	.	16ccc	8g
.	.	.	.	.	.	.	.	.	.	16ccc	.
.	.	16C	16C	.	.	.	.	.	.	16ccc	16e
.	.	16r	16r	.	.	.	.	.	.	16ccc	16r
=209	=209	=209	=209	=209	=209	=209	=209	=209	=209	=209	=209
4ee	4F	4A	4A	4cc	4.ccc	2r	2r	4A	4F	16ccc	4cc
.	.	.	.	.	.	.	.	.	.	16ccc	.
.	.	.	.	.	.	.	.	.	.	16ccc	.
.	.	.	.	.	.	.	.	.	.	16ccc	.
4r	4r	8F	8F	4r	.	.	.	4r	4r	8ccc	8a
.	.	8r	8r	.	8fff	.	.	.	.	8fff	8ff
=210	=210	=210	=210	=210	=210	=210	=210	=210	=210	=210	=210
[2cc	16A	16AA	8AA	[2c	8fff	2ccc	[2ff	2c	2F	8fff	8ff
.	16f	16F	.	.	.	.	.	.	.	.	.
.	16A	16AA	8AA	.	16ccc	.	.	.	.	16ccc	16cc
.	16f	16F	.	.	16r	.	.	.	.	16r	16r
.	16A	16AA	8AA	.	8ccc	.	.	.	.	8ccc	8cc
.	16f	16F	.	.	.	.	.	.	.	.	.
.	16A	16AA	8AA	.	16aa	.	.	.	.	16aa	16a
.	16f	16F	.	.	16r	.	.	.	.	16r	16r
=211	=211	=211	=211	=211	=211	=211	=211	=211	=211	=211	=211
2cc]	16B-	16BB-	8BB-	2c]	4ddd	4.ddd	2ff]	4.d	4.B-	4ddd	4dd
.	16f	16F	.	.	.	.	.	.	.	.	.
.	16B-	16BB-	8BB-	.	.	.	.	.	.	.	.
.	16f	16F	.	.	.	.	.	.	.	.	.
.	16B-	16BB-	8BB-	.	8bb-	.	.	.	.	8bb-	8b-
.	16f	16F	.	.	.	.	.	.	.	.	.
.	16B-	16BB-	8BB-	.	8bb-	8bb-	.	8B-	8G	8bb-	8b-
.	16f	16F	.	.	.	.	.	.	.	.	.
=212	=212	=212	=212	=212	=212	=212	=212	=212	=212	=212	=212
2g	16c	16C	8C	2G	8aa	8aa	8ff	8A	8F	8aa	8a
.	16f	16F	.	.	.	.	.	.	.	.	.
.	16c	16C	8C	.	8aa	8aa	8ff	8A	8F	8aa	8a
.	16f	16F	.	.	.	.	.	.	.	.	.
.	16c	16C	8C	.	16gg	16gg	8ee	16G	8C	16gg	16g
.	16e	16E	.	.	16ff	16ff	.	16F	.	16ff	16f
.	16c	16C	8C	.	16gg	16gg	8ee	16G	8C	16gg	16g
.	16e	16E	.	.	16aa	16aa	.	16A	.	16aa	16a
=213	=213	=213	=213	=213	=213	=213	=213	=213	=213	=213	=213
4cc	4f	4F	4FF	4c	4ff	4ff	4ff	4F	4AA	4ff	4f
4r	4r	4r	4r	4r	8r	4r	4r	4r	4r	8r	4r
.	.	.	.	.	8ff	.	.	.	.	8ff	.
=214	=214	=214	=214	=214	=214	=214	=214	=214	=214	=214	=214
4dd	4e 4G	4C	4C	4g	8gg	4ee	4b-	4c	4E	8gg	4ee 4g 4b-
.	.	.	.	.	8gg	.	.	.	.	8gg	.
4r	4r	4r	4r	4r	16gg	4r	4r	4r	4r	16gg	4r
.	.	.	.	.	16ff	.	.	.	.	16ff	.
.	.	.	.	.	16gg	.	.	.	.	16gg	.
.	.	.	.	.	16aa	.	.	.	.	16aa	.
=215	=215	=215	=215	=215	=215	=215	=215	=215	=215	=215	=215
4ee	4f 4A	4FF	4FF	4cc	4ff	4ff	4a	4A	4F	4ff	4ff 4a 4f
4r	4r	4r	4r	4r	8r	4r	4r	4r	4r	8r	4r
.	.	.	.	.	8ccc	.	.	.	.	8ccc	.
=216	=216	=216	=216	=216	=216	=216	=216	=216	=216	=216	=216
4dd	4e 4G	4C	4C	4g	8gg	4ee	4b-	4e	4G	8gg	4ee 4b- 4g
.	.	.	.	.	8gg	.	.	.	.	8gg	.
4r	4r	4r	4r	4r	16gg	4r	4r	4r	4r	16gg	4r
.	.	.	.	.	16ff	.	.	.	.	16ff	.
.	.	.	.	.	16gg	.	.	.	.	16gg	.
.	.	.	.	.	16aa	.	.	.	.	16aa	.
=217	=217	=217	=217	=217	=217	=217	=217	=217	=217	=217	=217
4cc	4f 4A	4FF	4FF	4e	4ff	4ff	4a	4f	4F	4ff	4ff 4a 4f
4r	4r	4r	4r	4r	4r	4r	4r	4r	4r	4r	4r
==	==	==	==	==	==	==	==	==	==	==	==
*-	*-	*-	*-	*-	*-	*-	*-	*-	*-	*-	*-
!!!RWG1: This file contains only pitch and duration data.
!!!RWG2: Transposing instruments are not transposed.
!!!RWG3: Spines may have incompatible meters.
!!!RWG4: Durations of rests and tied notes may be interpreted.
!!!RWG: Key is interpreted using the Humdrum key tool.
!!!OPT: L'ours
!!!AFT: stage1
!!!END: 1997/04/15
!!format changes:
!!content changes:
!!public access: complete
!!!KEY: 307983045
!!!EMD: Converted from MuseData to Humdrum Dec 16, 2000, by Andreas Kornstaedt using muse2kern.
